;FLAVOR:Marlin
;TIME:6660
;Filament used: 6.54305m
;Layer height: 0.28
;MINX:65.64
;MINY:79.698
;MINZ:0.28
;MAXX:169.26
;MAXY:155.301
;MAXZ:4.76
;Generated with Cura_SteamEngine 5.4.0
M140 S100
M105
M190 S100
M104 S240
M105
M109 S240
M82 ;absolute extrusion mode
M201 X500.00 Y500.00 Z100.00 E5000.00 ;Setup machine max acceleration
M203 X500.00 Y500.00 Z10.00 E50.00 ;Setup machine max feedrate
M204 P500.00 R1000.00 T500.00 ;Setup Print/Retract/Travel acceleration
M205 X8.00 Y8.00 Z0.40 E5.00 ;Setup Jerk
M220 S100 ;Reset Feedrate
M221 S100 ;Reset Flowrate

G28 ;Home

G92 E0 ;Reset Extruder
G1 Z2.0 F3000 ;Move Z Axis up
G1 X10.1 Y20 Z0.28 F5000.0 ;Move to start position
G1 X10.1 Y200.0 Z0.28 F1500.0 E15 ;Draw the first line
G1 X10.4 Y200.0 Z0.28 F5000.0 ;Move to side a little
G1 X10.4 Y20 Z0.28 F1500.0 E30 ;Draw the second line
G92 E0 ;Reset Extruder
G1 Z2.0 F3000 ;Move Z Axis up

G92 E0
G92 E0
G1 F1500 E-6.5
;LAYER_COUNT:17
;LAYER:0
M107
G0 F6000 X68.738 Y81.246 Z0.28
;TYPE:SKIRT
G1 F1500 E0
G1 F1200 X70.332 Y80.303 E0.10349
G1 X71.08 Y79.999 E0.1486
G1 X72.739 Y79.749 E0.24235
G1 X76.921 Y79.698 E0.47604
G1 X77.369 Y79.804 E0.50177
G1 X77.797 Y79.748 E0.52589
G1 X157.258 Y79.7 E4.96593
G1 X157.681 Y79.803 E4.99026
G1 X158.192 Y79.736 E5.01906
G1 X162.334 Y79.7 E5.25051
G1 X164.164 Y80.145 E5.35574
G1 X166.237 Y81.217 E5.48615
G1 X167.696 Y82.78 E5.60562
G1 X168.903 Y84.803 E5.73725
G1 X169.185 Y86.521 E5.83453
G1 X169.26 Y148.353 E9.28952
G1 X168.794 Y150.249 E9.39862
G1 X167.741 Y152.277 E9.5263
G1 X166.162 Y153.754 E9.64712
G1 X164.568 Y154.697 E9.7506
G1 X163.82 Y155.001 E9.79572
G1 X162.161 Y155.251 E9.88947
G1 X157.876 Y155.301 E10.12891
G1 X157.43 Y155.196 E10.15452
G1 X157.003 Y155.252 E10.17858
G1 X77.542 Y155.3 E14.61863
G1 X77.119 Y155.197 E14.64295
G1 X76.608 Y155.264 E14.67175
G1 X72.566 Y155.3 E14.89761
G1 X70.736 Y154.855 E15.00285
G1 X68.663 Y153.783 E15.13325
G1 X67.204 Y152.22 E15.25273
G1 X65.997 Y150.197 E15.38436
G1 X65.715 Y148.479 E15.48164
G1 X65.64 Y86.647 E18.93663
G1 X66.106 Y84.751 E19.04572
G1 X67.159 Y82.723 E19.17341
G1 X68.738 Y81.246 E19.29422
G0 F6000 X68.977 Y81.57
G1 F1200 X70.483 Y80.674 E19.39214
G1 X71.187 Y80.388 E19.4346
G1 X72.799 Y80.145 E19.52569
G1 X76.878 Y80.099 E19.75363
G1 X77.35 Y80.21 E19.78072
G1 X77.849 Y80.145 E19.80884
G1 X157.208 Y80.1 E24.24318
G1 X157.659 Y80.21 E24.26912
G1 X158.244 Y80.133 E24.30209
G1 X162.286 Y80.1 E24.52796
G1 X164.025 Y80.523 E24.62796
G1 X165.992 Y81.541 E24.75172
G1 X167.372 Y83.019 E24.86471
G1 X168.52 Y84.943 E24.9899
G1 X168.79 Y86.586 E25.08293
G1 X168.86 Y148.307 E28.53172
G1 X168.418 Y150.106 E28.63523
G1 X167.418 Y152.032 E28.75649
G1 X165.923 Y153.43 E28.87086
G1 X164.417 Y154.326 E28.96878
G1 X163.713 Y154.612 E29.01124
G1 X162.101 Y154.855 E29.10233
G1 X157.922 Y154.9 E29.33586
G1 X157.45 Y154.79 E29.36294
G1 X156.951 Y154.855 E29.39106
G1 X77.592 Y154.9 E33.8254
G1 X77.141 Y154.79 E33.85134
G1 X76.556 Y154.867 E33.88431
G1 X72.614 Y154.9 E34.10459
G1 X70.875 Y154.477 E34.20459
G1 X68.908 Y153.459 E34.32835
G1 X67.528 Y151.981 E34.44134
G1 X66.38 Y150.057 E34.56653
G1 X66.11 Y148.414 E34.65956
G1 X66.04 Y86.693 E38.10835
G1 X66.482 Y84.894 E38.21186
G1 X67.482 Y82.968 E38.33312
G1 X68.977 Y81.57 E38.44749
G0 F6000 X69.216 Y81.894
G1 F1200 X70.688 Y81.018 E38.54321
G1 X71.289 Y80.778 E38.57937
G1 X72.859 Y80.541 E38.66809
G1 X76.836 Y80.5 E38.89032
G1 X77.331 Y80.616 E38.91873
G1 X77.849 Y80.545 E38.94795
G1 X157.158 Y80.5 E43.3795
G1 X157.637 Y80.617 E43.40705
G1 X158.296 Y80.53 E43.44419
G1 X162.238 Y80.5 E43.66447
G1 X163.886 Y80.901 E43.75924
G1 X165.747 Y81.865 E43.87635
G1 X167.051 Y83.261 E43.98309
G1 X168.137 Y85.081 E44.10152
G1 X168.395 Y86.651 E44.19042
G1 X168.46 Y148.26 E47.63295
G1 X168.041 Y149.964 E47.731
G1 X167.095 Y151.787 E47.84576
G1 X165.684 Y153.106 E47.95369
G1 X164.212 Y153.982 E48.0494
G1 X163.611 Y154.222 E48.08556
G1 X162.041 Y154.459 E48.17428
G1 X157.964 Y154.5 E48.40211
G1 X157.469 Y154.384 E48.43052
G1 X156.951 Y154.455 E48.45973
G1 X77.642 Y154.5 E52.89128
G1 X77.163 Y154.383 E52.91883
G1 X76.504 Y154.47 E52.95598
G1 X72.662 Y154.5 E53.17066
G1 X71.014 Y154.099 E53.26544
G1 X69.153 Y153.135 E53.38255
G1 X67.849 Y151.739 E53.48929
G1 X66.763 Y149.919 E53.60771
G1 X66.505 Y148.349 E53.69662
G1 X66.44 Y86.74 E57.13915
G1 X66.859 Y85.036 E57.2372
G1 X67.805 Y83.213 E57.35196
G1 X69.216 Y81.894 E57.45988
G0 F6000 X69.455 Y82.218
G1 F1200 X70.893 Y81.362 E57.55339
G1 X71.393 Y81.167 E57.58338
G1 X72.919 Y80.937 E57.66961
G1 X76.793 Y80.9 E57.88609
G1 X77.315 Y81.023 E57.91606
G1 X77.849 Y80.945 E57.94621
G1 X157.108 Y80.9 E62.37497
G1 X157.614 Y81.024 E62.40408
G1 X158.299 Y80.93 E62.44272
G1 X162.19 Y80.9 E62.66014
G1 X163.747 Y81.279 E62.74968
G1 X165.502 Y82.188 E62.86012
G1 X166.73 Y83.503 E62.96065
G1 X167.754 Y85.219 E63.07231
G1 X168 Y86.716 E63.15708
G1 X168.06 Y148.214 E66.59341
G1 X167.665 Y149.821 E66.68588
G1 X166.772 Y151.542 E66.79422
G1 X165.445 Y152.782 E66.8957
G1 X164.007 Y153.638 E66.98921
G1 X163.507 Y153.833 E67.0192
G1 X161.981 Y154.063 E67.10543
G1 X158.007 Y154.1 E67.32749
G1 X157.485 Y153.977 E67.35746
G1 X156.951 Y154.055 E67.38762
G1 X77.692 Y154.1 E71.81637
G1 X77.186 Y153.976 E71.84548
G1 X76.501 Y154.07 E71.88412
G1 X72.71 Y154.1 E72.09595
G1 X71.153 Y153.721 E72.1855
G1 X69.398 Y152.812 E72.29593
G1 X68.17 Y151.497 E72.39647
G1 X67.146 Y149.781 E72.50813
G1 X66.9 Y148.284 E72.5929
G1 X66.84 Y86.786 E76.02922
G1 X67.235 Y85.179 E76.12169
G1 X68.128 Y83.458 E76.23003
G1 X69.455 Y82.218 E76.33151
G0 F6000 X69.694 Y82.542
G1 F1200 X71.098 Y81.706 E76.42282
G1 X71.493 Y81.557 E76.44641
G1 X72.979 Y81.333 E76.53038
G1 X76.749 Y81.3 E76.74104
G1 X77.299 Y81.43 E76.77262
G1 X77.849 Y81.345 E76.80372
G1 X157.058 Y81.3 E81.22969
G1 X157.593 Y81.431 E81.26046
G1 X158.302 Y81.33 E81.30048
G1 X162.142 Y81.3 E81.51505
G1 X163.608 Y81.657 E81.59936
G1 X165.257 Y82.511 E81.70313
G1 X166.409 Y83.745 E81.79746
G1 X167.371 Y85.357 E81.90235
G1 X167.605 Y86.781 E81.98299
G1 X167.66 Y148.168 E85.41311
G1 X167.289 Y149.678 E85.5
G1 X166.449 Y151.297 E85.60191
G1 X165.206 Y152.458 E85.69695
G1 X163.802 Y153.294 E85.78826
G1 X163.407 Y153.443 E85.81185
G1 X161.921 Y153.667 E85.89582
G1 X158.051 Y153.7 E86.11207
G1 X157.501 Y153.57 E86.14365
G1 X156.951 Y153.655 E86.17475
G1 X77.742 Y153.7 E90.60071
G1 X77.207 Y153.569 E90.63149
G1 X76.498 Y153.67 E90.6715
G1 X72.758 Y153.7 E90.88049
G1 X71.292 Y153.343 E90.9648
G1 X69.643 Y152.489 E91.06857
G1 X68.491 Y151.255 E91.16289
G1 X67.529 Y149.643 E91.26779
G1 X67.295 Y148.219 E91.34842
G1 X67.24 Y86.832 E94.77855
G1 X67.611 Y85.322 E94.86543
G1 X68.451 Y83.703 E94.96735
G1 X69.694 Y82.542 E95.06239
G0 F6000 X69.933 Y82.866
G1 F1200 X71.303 Y82.05 E95.15149
G1 X71.592 Y81.947 E95.16863
G1 X73.039 Y81.729 E95.2504
G1 X76.705 Y81.7 E95.45525
G1 X77.286 Y81.838 E95.48862
G1 X77.849 Y81.745 E95.5205
G1 X157.008 Y81.7 E99.94367
G1 X157.574 Y81.838 E99.97623
G1 X158.305 Y81.73 E100.01752
G1 X162.094 Y81.7 E100.22924
G1 X163.469 Y82.035 E100.30832
G1 X165.012 Y82.834 E100.40541
G1 X166.088 Y83.987 E100.49353
G1 X166.988 Y85.495 E100.59166
G1 X167.21 Y86.846 E100.66817
G1 X167.26 Y148.121 E104.09203
G1 X166.912 Y149.536 E104.17345
G1 X166.126 Y151.052 E104.26887
G1 X164.967 Y152.134 E104.35747
G1 X163.597 Y152.95 E104.44657
G1 X163.308 Y153.053 E104.46371
G1 X161.861 Y153.271 E104.54548
G1 X158.095 Y153.3 E104.75592
G1 X157.514 Y153.162 E104.78929
G1 X156.951 Y153.255 E104.82117
G1 X77.792 Y153.3 E109.24434
G1 X77.226 Y153.162 E109.27689
G1 X76.495 Y153.27 E109.31818
G1 X72.806 Y153.3 E109.52432
G1 X71.431 Y152.965 E109.6034
G1 X69.888 Y152.166 E109.70049
G1 X68.812 Y151.013 E109.78861
G1 X67.912 Y149.505 E109.88674
G1 X67.69 Y148.154 E109.96324
G1 X67.64 Y86.879 E113.38711
G1 X67.988 Y85.464 E113.46853
G1 X68.774 Y83.948 E113.56395
G1 X69.933 Y82.866 E113.65255
G0 F6000 X70.172 Y83.19
G1 F1200 X71.508 Y82.394 E113.73945
G1 X71.652 Y82.343 E113.74798
G1 X73.099 Y82.125 E113.82975
G1 X76.66 Y82.1 E114.02873
G1 X77.272 Y82.246 E114.06389
G1 X77.914 Y82.14 E114.10025
G1 X156.958 Y82.1 E118.51699
G1 X157.554 Y82.245 E118.55126
G1 X158.308 Y82.13 E118.59388
G1 X162.046 Y82.1 E118.80276
G1 X163.33 Y82.413 E118.8766
G1 X164.767 Y83.157 E118.96702
G1 X165.767 Y84.229 E119.04894
G1 X166.605 Y85.633 E119.1403
G1 X166.815 Y86.911 E119.21267
G1 X166.86 Y148.075 E122.63033
G1 X166.536 Y149.393 E122.70617
G1 X165.803 Y150.807 E122.79517
G1 X164.728 Y151.81 E122.87732
G1 X163.392 Y152.606 E122.96422
G1 X163.248 Y152.657 E122.97276
G1 X161.801 Y152.875 E123.05452
G1 X158.14 Y152.9 E123.25909
G1 X157.528 Y152.754 E123.29425
G1 X156.886 Y152.86 E123.33061
G1 X77.842 Y152.9 E127.74735
G1 X77.246 Y152.755 E127.78163
G1 X76.492 Y152.87 E127.82424
G1 X72.854 Y152.9 E128.02753
G1 X71.57 Y152.587 E128.10138
G1 X70.133 Y151.843 E128.1918
G1 X69.133 Y150.771 E128.27371
G1 X68.295 Y149.367 E128.36508
G1 X68.085 Y148.089 E128.43745
G1 X68.04 Y86.925 E131.85511
G1 X68.364 Y85.607 E131.93095
G1 X69.097 Y84.193 E132.01994
G1 X70.172 Y83.19 E132.1021
G0 F6000 X70.414 Y83.512
G1 F1200 X71.713 Y82.738 E132.18659
G1 X73.102 Y82.525 E132.26511
G1 X76.614 Y82.5 E132.46135
G1 X77.258 Y82.654 E132.49835
G1 X77.979 Y82.535 E132.53919
G1 X156.908 Y82.5 E136.9495
G1 X157.536 Y82.653 E136.98562
G1 X158.311 Y82.53 E137.02947
G1 X161.998 Y82.5 E137.23549
G1 X163.191 Y82.791 E137.30411
G1 X164.52 Y83.479 E137.38773
G1 X165.448 Y84.474 E137.46376
G1 X166.222 Y85.771 E137.54815
G1 X166.42 Y86.976 E137.61639
G1 X166.46 Y148.029 E141.02785
G1 X166.16 Y149.25 E141.0981
G1 X165.481 Y150.56 E141.18055
G1 X164.486 Y151.488 E141.25658
G1 X163.187 Y152.262 E141.34107
G1 X161.798 Y152.475 E141.41959
G1 X158.186 Y152.5 E141.62142
G1 X157.542 Y152.346 E141.65842
G1 X156.821 Y152.465 E141.69925
G1 X77.892 Y152.5 E146.10957
G1 X77.264 Y152.347 E146.14569
G1 X76.489 Y152.47 E146.18954
G1 X72.902 Y152.5 E146.38997
G1 X71.709 Y152.209 E146.45859
G1 X70.38 Y151.521 E146.54221
G1 X69.452 Y150.526 E146.61824
G1 X68.678 Y149.229 E146.70263
G1 X68.48 Y148.024 E146.77087
G1 X68.44 Y86.971 E150.18233
G1 X68.74 Y85.75 E150.25258
G1 X69.419 Y84.44 E150.33503
G1 X70.414 Y83.512 E150.41106
G0 F6000 X70.656 Y83.834
G1 F1200 X71.852 Y83.121 E150.48886
G1 X73.105 Y82.925 E150.55972
G1 X76.568 Y82.9 E150.75323
G1 X77.244 Y83.062 E150.79207
G1 X78.044 Y82.93 E150.83738
G1 X156.858 Y82.9 E155.24127
G1 X157.521 Y83.062 E155.27941
G1 X158.314 Y82.93 E155.32433
G1 X161.95 Y82.9 E155.5275
G1 X163.052 Y83.169 E155.59089
G1 X164.273 Y83.801 E155.66771
G1 X165.126 Y84.716 E155.73761
G1 X165.839 Y85.911 E155.81537
G1 X166.025 Y87.041 E155.87936
G1 X166.06 Y147.983 E159.28462
G1 X165.784 Y149.107 E159.34929
G1 X165.159 Y150.313 E159.42519
G1 X164.244 Y151.166 E159.49509
G1 X163.048 Y151.879 E159.57289
G1 X161.795 Y152.075 E159.64375
G1 X158.232 Y152.1 E159.84285
G1 X157.556 Y151.938 E159.88169
G1 X156.756 Y152.07 E159.927
G1 X77.942 Y152.1 E164.33089
G1 X77.279 Y151.938 E164.36903
G1 X76.486 Y152.07 E164.41395
G1 X72.95 Y152.1 E164.61153
G1 X71.848 Y151.831 E164.67492
G1 X70.627 Y151.199 E164.75174
G1 X69.774 Y150.284 E164.82164
G1 X69.061 Y149.089 E164.8994
G1 X68.875 Y147.959 E164.96339
G1 X68.84 Y87.017 E168.36864
G1 X69.116 Y85.893 E168.43332
G1 X69.741 Y84.687 E168.50922
G1 X70.656 Y83.834 E168.57911
G0 F6000 X70.898 Y84.156
G1 F1200 X71.992 Y83.504 E168.65028
G1 X73.108 Y83.325 E168.71343
G1 X76.522 Y83.3 E168.9042
G1 X77.23 Y83.47 E168.94489
G1 X78.044 Y83.33 E168.99104
G1 X156.808 Y83.3 E173.39214
G1 X157.506 Y83.47 E173.43228
G1 X158.317 Y83.33 E173.47827
G1 X161.902 Y83.3 E173.67859
G1 X162.913 Y83.547 E173.73675
G1 X164.026 Y84.123 E173.80677
G1 X164.804 Y84.958 E173.87054
G1 X165.456 Y86.051 E173.94166
G1 X165.63 Y87.106 E174.0014
G1 X165.66 Y147.936 E177.4004
G1 X165.407 Y148.965 E177.45961
G1 X164.837 Y150.066 E177.52889
G1 X164.002 Y150.844 E177.59266
G1 X162.908 Y151.496 E177.66382
G1 X161.792 Y151.675 E177.72698
G1 X158.278 Y151.7 E177.92334
G1 X157.57 Y151.53 E177.96402
G1 X156.756 Y151.67 E178.01017
G1 X77.992 Y151.7 E182.41127
G1 X77.294 Y151.53 E182.45141
G1 X76.483 Y151.67 E182.4974
G1 X72.998 Y151.7 E182.69214
G1 X71.987 Y151.453 E182.75029
G1 X70.874 Y150.877 E182.82032
G1 X70.096 Y150.042 E182.88409
G1 X69.444 Y148.949 E182.9552
G1 X69.27 Y147.894 E183.01495
G1 X69.24 Y87.064 E186.41395
G1 X69.493 Y86.035 E186.47316
G1 X70.063 Y84.934 E186.54244
G1 X70.898 Y84.156 E186.60621
G0 F6000 X71.14 Y84.478
G1 F1200 X72.131 Y83.887 E186.67068
G1 X73.111 Y83.725 E186.72618
G1 X76.475 Y83.7 E186.91416
G1 X77.242 Y83.885 E186.95825
G1 X77.354 Y83.851 E186.96479
G1 X78.11 Y83.725 E187.00761
G1 X156.758 Y83.7 E191.40223
G1 X157.516 Y83.885 E191.44583
G1 X157.627 Y83.851 E191.45231
G1 X158.383 Y83.725 E191.49514
G1 X161.854 Y83.7 E191.68909
G1 X162.774 Y83.925 E191.74201
G1 X163.779 Y84.445 E191.80524
G1 X164.482 Y85.2 E191.86289
G1 X165.073 Y86.191 E191.92736
G1 X165.235 Y87.171 E191.98286
G1 X165.26 Y147.89 E195.37566
G1 X165.031 Y148.822 E195.42929
G1 X164.515 Y149.819 E195.49201
G1 X163.76 Y150.522 E195.54966
G1 X162.769 Y151.113 E195.61413
G1 X161.789 Y151.275 E195.66963
G1 X158.325 Y151.3 E195.8632
G1 X157.558 Y151.115 E195.90728
G1 X157.446 Y151.149 E195.91382
G1 X156.69 Y151.275 E195.95665
G1 X78.042 Y151.3 E200.35127
G1 X77.284 Y151.115 E200.39487
G1 X77.173 Y151.149 E200.40135
G1 X76.417 Y151.275 E200.44418
G1 X73.046 Y151.3 E200.63254
G1 X72.126 Y151.075 E200.68547
G1 X71.121 Y150.555 E200.74869
G1 X70.418 Y149.8 E200.80634
G1 X69.827 Y148.809 E200.87081
G1 X69.665 Y147.829 E200.92631
G1 X69.64 Y87.11 E204.31911
G1 X69.869 Y86.178 E204.37274
G1 X70.385 Y85.181 E204.43547
G1 X71.14 Y84.478 E204.49311
G0 F6000 X71.379 Y84.802
G1 F1200 X72.271 Y84.27 E204.55114
G1 X73.176 Y84.12 E204.6024
G1 X76.428 Y84.1 E204.78412
G1 X77.266 Y84.303 E204.8323
G1 X77.42 Y84.246 E204.84147
G1 X78.176 Y84.12 E204.8843
G1 X156.708 Y84.1 E209.27243
G1 X157.538 Y84.303 E209.32018
G1 X157.693 Y84.246 E209.32941
G1 X158.449 Y84.12 E209.37223
G1 X161.805 Y84.1 E209.55976
G1 X162.635 Y84.303 E209.6075
G1 X163.534 Y84.768 E209.66406
G1 X164.158 Y85.439 E209.71526
G1 X164.69 Y86.331 E209.77329
G1 X164.84 Y87.236 E209.82455
G1 X164.86 Y147.844 E213.21115
G1 X164.655 Y148.679 E213.25919
G1 X164.192 Y149.574 E213.3155
G1 X163.521 Y150.198 E213.3667
G1 X162.629 Y150.73 E213.42473
G1 X161.724 Y150.88 E213.47599
G1 X158.372 Y150.9 E213.66329
G1 X157.534 Y150.697 E213.71147
G1 X157.38 Y150.754 E213.72065
G1 X156.624 Y150.88 E213.76347
G1 X78.092 Y150.9 E218.15161
G1 X77.262 Y150.697 E218.19935
G1 X77.107 Y150.754 E218.20858
G1 X76.351 Y150.88 E218.25141
G1 X73.095 Y150.9 E218.43334
G1 X72.265 Y150.697 E218.48109
G1 X71.366 Y150.232 E218.53764
G1 X70.742 Y149.561 E218.58885
G1 X70.21 Y148.669 E218.64688
G1 X70.06 Y147.764 E218.69814
G1 X70.04 Y87.156 E222.08473
G1 X70.245 Y86.321 E222.13278
G1 X70.708 Y85.426 E222.18908
G1 X71.379 Y84.802 E222.24028
G0 F6000 X71.618 Y85.126
G1 F1200 X72.411 Y84.653 E222.29188
G1 X73.242 Y84.515 E222.33895
G1 X76.381 Y84.5 E222.51435
G1 X77.081 Y84.67 E222.5546
G1 X77.254 Y84.749 E222.56522
G1 X77.486 Y84.641 E222.57952
G1 X78.242 Y84.515 E222.62235
G1 X156.658 Y84.5 E227.004
G1 X157.352 Y84.67 E227.04393
G1 X157.527 Y84.749 E227.05465
G1 X157.759 Y84.641 E227.06895
G1 X158.515 Y84.515 E227.11178
G1 X161.756 Y84.5 E227.29288
G1 X162.496 Y84.681 E227.33545
G1 X163.289 Y85.091 E227.38533
G1 X163.834 Y85.678 E227.43009
G1 X164.307 Y86.471 E227.48168
G1 X164.445 Y87.302 E227.52875
G1 X164.46 Y147.798 E230.90909
G1 X164.279 Y148.536 E230.95155
G1 X163.869 Y149.329 E231.00143
G1 X163.282 Y149.874 E231.04619
G1 X162.489 Y150.347 E231.09778
G1 X161.658 Y150.485 E231.14485
G1 X158.419 Y150.5 E231.32584
G1 X157.719 Y150.33 E231.36609
G1 X157.546 Y150.251 E231.37672
G1 X157.314 Y150.359 E231.39102
G1 X156.558 Y150.485 E231.43384
G1 X78.142 Y150.5 E235.81549
G1 X77.448 Y150.33 E235.85542
G1 X77.273 Y150.251 E235.86615
G1 X77.041 Y150.359 E235.88045
G1 X76.285 Y150.485 E235.92327
G1 X73.144 Y150.5 E236.09878
