;FLAVOR:Marlin
;TIME:6385
;Filament used: 6.39256m
;Layer height: 0.28
;MINX:65.69
;MINY:79.699
;MINZ:0.28
;MAXX:169.31
;MAXY:155.302
;MAXZ:4.76
;Generated with Cura_SteamEngine 5.4.0
M140 S100
M105
M190 S100
M104 S240
M105
M109 S240
M82 ;absolute extrusion mode
M201 X500.00 Y500.00 Z100.00 E5000.00 ;Setup machine max acceleration
M203 X500.00 Y500.00 Z10.00 E50.00 ;Setup machine max feedrate
M204 P500.00 R1000.00 T500.00 ;Setup Print/Retract/Travel acceleration
M205 X8.00 Y8.00 Z0.40 E5.00 ;Setup Jerk
M220 S100 ;Reset Feedrate
M221 S100 ;Reset Flowrate

G28 ;Home

G92 E0 ;Reset Extruder
G1 Z2.0 F3000 ;Move Z Axis up
G1 X10.1 Y20 Z0.28 F5000.0 ;Move to start position
G1 X10.1 Y200.0 Z0.28 F1500.0 E15 ;Draw the first line
G1 X10.4 Y200.0 Z0.28 F5000.0 ;Move to side a little
G1 X10.4 Y20 Z0.28 F1500.0 E30 ;Draw the second line
G92 E0 ;Reset Extruder
G1 Z2.0 F3000 ;Move Z Axis up

G92 E0
G92 E0
G1 F1500 E-6.5
;LAYER_COUNT:17
;LAYER:0
M107
G0 F6000 X68.788 Y81.246 Z0.28
;TYPE:SKIRT
G1 F1500 E0
G1 F1200 X70.382 Y80.303 E0.10349
G1 X71.13 Y79.999 E0.1486
G1 X72.789 Y79.749 E0.24235
G1 X77.074 Y79.699 E0.4818
G1 X77.52 Y79.804 E0.5074
G1 X77.947 Y79.748 E0.53147
G1 X157.408 Y79.7 E4.97151
G1 X157.831 Y79.803 E4.99584
G1 X158.342 Y79.736 E5.02463
G1 X162.384 Y79.7 E5.2505
G1 X164.214 Y80.145 E5.35573
G1 X166.287 Y81.217 E5.48614
G1 X167.746 Y82.78 E5.60561
G1 X168.953 Y84.803 E5.73724
G1 X169.235 Y86.521 E5.83452
G1 X169.31 Y148.353 E9.28951
G1 X168.844 Y150.249 E9.39861
G1 X167.791 Y152.277 E9.52629
G1 X166.212 Y153.754 E9.64711
G1 X164.618 Y154.697 E9.75059
G1 X163.87 Y155.001 E9.79571
G1 X162.211 Y155.251 E9.88946
G1 X158.029 Y155.302 E10.12315
G1 X157.581 Y155.196 E10.14887
G1 X157.153 Y155.252 E10.17299
G1 X77.692 Y155.3 E14.61304
G1 X77.269 Y155.197 E14.63737
G1 X76.758 Y155.264 E14.66616
G1 X72.616 Y155.3 E14.89761
G1 X70.786 Y154.855 E15.00285
G1 X68.713 Y153.783 E15.13325
G1 X67.254 Y152.22 E15.25273
G1 X66.047 Y150.197 E15.38436
G1 X65.765 Y148.479 E15.48164
G1 X65.69 Y86.647 E18.93663
G1 X66.156 Y84.751 E19.04572
G1 X67.209 Y82.723 E19.17341
G1 X68.788 Y81.246 E19.29422
G0 F6000 X69.027 Y81.57
G1 F1200 X70.533 Y80.674 E19.39214
G1 X71.237 Y80.388 E19.4346
G1 X72.849 Y80.145 E19.52569
G1 X77.028 Y80.1 E19.75921
G1 X77.5 Y80.21 E19.78629
G1 X77.999 Y80.145 E19.81441
G1 X157.358 Y80.1 E24.24876
G1 X157.809 Y80.21 E24.2747
G1 X158.394 Y80.133 E24.30767
G1 X162.336 Y80.1 E24.52794
G1 X164.075 Y80.523 E24.62795
G1 X166.042 Y81.541 E24.7517
G1 X167.422 Y83.019 E24.86469
G1 X168.57 Y84.943 E24.98988
G1 X168.84 Y86.586 E25.08292
G1 X168.91 Y148.307 E28.53171
G1 X168.468 Y150.106 E28.63522
G1 X167.468 Y152.032 E28.75648
G1 X165.973 Y153.43 E28.87085
G1 X164.467 Y154.326 E28.96877
G1 X163.763 Y154.612 E29.01123
G1 X162.151 Y154.855 E29.10232
G1 X158.072 Y154.901 E29.33026
G1 X157.6 Y154.79 E29.35735
G1 X157.101 Y154.855 E29.38547
G1 X77.742 Y154.9 E33.81981
G1 X77.291 Y154.79 E33.84575
G1 X76.706 Y154.867 E33.87872
G1 X72.664 Y154.9 E34.10459
G1 X70.925 Y154.477 E34.20459
G1 X68.958 Y153.459 E34.32835
G1 X67.578 Y151.981 E34.44134
G1 X66.43 Y150.057 E34.56653
G1 X66.16 Y148.414 E34.65956
G1 X66.09 Y86.693 E38.10835
G1 X66.532 Y84.894 E38.21186
G1 X67.532 Y82.968 E38.33312
G1 X69.027 Y81.57 E38.44749
G0 F6000 X69.266 Y81.894
G1 F1200 X70.738 Y81.018 E38.54321
G1 X71.339 Y80.778 E38.57937
G1 X72.909 Y80.541 E38.66809
G1 X76.986 Y80.5 E38.89591
G1 X77.481 Y80.616 E38.92432
G1 X77.999 Y80.545 E38.95354
G1 X157.308 Y80.5 E43.38509
G1 X157.787 Y80.617 E43.41264
G1 X158.446 Y80.53 E43.44978
G1 X162.288 Y80.5 E43.66447
G1 X163.936 Y80.901 E43.75924
G1 X165.797 Y81.865 E43.87635
G1 X167.101 Y83.261 E43.98309
G1 X168.187 Y85.081 E44.10152
G1 X168.445 Y86.651 E44.19042
G1 X168.51 Y148.26 E47.63295
G1 X168.091 Y149.964 E47.731
G1 X167.145 Y151.787 E47.84576
G1 X165.734 Y153.106 E47.95369
G1 X164.262 Y153.982 E48.0494
G1 X163.661 Y154.222 E48.08556
G1 X162.091 Y154.459 E48.17428
G1 X158.114 Y154.5 E48.39652
G1 X157.619 Y154.384 E48.42493
G1 X157.101 Y154.455 E48.45414
G1 X77.792 Y154.5 E52.88569
G1 X77.313 Y154.383 E52.91325
G1 X76.654 Y154.47 E52.95039
G1 X72.712 Y154.5 E53.17066
G1 X71.064 Y154.099 E53.26544
G1 X69.203 Y153.135 E53.38255
G1 X67.899 Y151.739 E53.48929
G1 X66.813 Y149.919 E53.60771
G1 X66.555 Y148.349 E53.69662
G1 X66.49 Y86.74 E57.13915
G1 X66.909 Y85.036 E57.2372
G1 X67.855 Y83.213 E57.35196
G1 X69.266 Y81.894 E57.45988
G0 F6000 X69.505 Y82.218
G1 F1200 X70.943 Y81.362 E57.55339
G1 X71.443 Y81.167 E57.58338
G1 X72.969 Y80.937 E57.66961
G1 X76.943 Y80.9 E57.89168
G1 X77.465 Y81.023 E57.92165
G1 X77.999 Y80.945 E57.9518
G1 X157.258 Y80.9 E62.38056
G1 X157.764 Y81.024 E62.40967
G1 X158.449 Y80.93 E62.4483
G1 X162.24 Y80.9 E62.66014
G1 X163.797 Y81.279 E62.74968
G1 X165.552 Y82.188 E62.86012
G1 X166.78 Y83.503 E62.96065
G1 X167.804 Y85.219 E63.07231
G1 X168.05 Y86.716 E63.15708
G1 X168.11 Y148.214 E66.59341
G1 X167.715 Y149.821 E66.68588
G1 X166.822 Y151.542 E66.79422
G1 X165.495 Y152.782 E66.8957
G1 X164.057 Y153.638 E66.98921
G1 X163.557 Y153.833 E67.0192
G1 X162.031 Y154.063 E67.10543
G1 X158.157 Y154.1 E67.32191
G1 X157.635 Y153.977 E67.35187
G1 X157.101 Y154.055 E67.38203
G1 X77.842 Y154.1 E71.81079
G1 X77.336 Y153.976 E71.8399
G1 X76.651 Y154.07 E71.87853
G1 X72.76 Y154.1 E72.09595
G1 X71.203 Y153.721 E72.1855
G1 X69.448 Y152.812 E72.29593
G1 X68.22 Y151.497 E72.39647
G1 X67.196 Y149.781 E72.50813
G1 X66.95 Y148.284 E72.5929
G1 X66.89 Y86.786 E76.02922
G1 X67.285 Y85.179 E76.12169
G1 X68.178 Y83.458 E76.23003
G1 X69.505 Y82.218 E76.33151
G0 F6000 X69.744 Y82.542
G1 F1200 X71.148 Y81.706 E76.42282
G1 X71.543 Y81.557 E76.44641
G1 X73.029 Y81.333 E76.53038
G1 X76.899 Y81.3 E76.74663
G1 X77.449 Y81.43 E76.77821
G1 X77.999 Y81.345 E76.80931
G1 X157.208 Y81.3 E81.23527
G1 X157.743 Y81.431 E81.26605
G1 X158.452 Y81.33 E81.30607
G1 X162.192 Y81.3 E81.51505
G1 X163.658 Y81.657 E81.59936
G1 X165.307 Y82.511 E81.70313
G1 X166.459 Y83.745 E81.79746
G1 X167.421 Y85.357 E81.90235
G1 X167.655 Y86.781 E81.98299
G1 X167.71 Y148.168 E85.41311
G1 X167.339 Y149.678 E85.5
G1 X166.499 Y151.297 E85.60191
G1 X165.256 Y152.458 E85.69695
G1 X163.852 Y153.294 E85.78826
G1 X163.457 Y153.443 E85.81185
G1 X161.971 Y153.667 E85.89582
G1 X158.201 Y153.7 E86.10648
G1 X157.651 Y153.57 E86.13806
G1 X157.101 Y153.655 E86.16916
G1 X77.892 Y153.7 E90.59512
G1 X77.357 Y153.569 E90.6259
G1 X76.648 Y153.67 E90.66592
G1 X72.808 Y153.7 E90.88049
G1 X71.342 Y153.343 E90.9648
G1 X69.693 Y152.489 E91.06857
G1 X68.541 Y151.255 E91.16289
G1 X67.579 Y149.643 E91.26779
G1 X67.345 Y148.219 E91.34842
G1 X67.29 Y86.832 E94.77855
G1 X67.661 Y85.322 E94.86543
G1 X68.501 Y83.703 E94.96735
G1 X69.744 Y82.542 E95.06239
G0 F6000 X69.983 Y82.866
G1 F1200 X71.353 Y82.05 E95.15149
G1 X71.642 Y81.947 E95.16863
G1 X73.089 Y81.729 E95.2504
G1 X76.855 Y81.7 E95.46084
G1 X77.436 Y81.838 E95.49421
G1 X77.999 Y81.745 E95.52609
G1 X157.158 Y81.7 E99.94926
G1 X157.724 Y81.838 E99.98182
G1 X158.455 Y81.73 E100.0231
G1 X162.144 Y81.7 E100.22924
G1 X163.519 Y82.035 E100.30832
G1 X165.062 Y82.834 E100.40541
G1 X166.138 Y83.987 E100.49353
G1 X167.038 Y85.495 E100.59166
G1 X167.26 Y86.846 E100.66817
G1 X167.31 Y148.121 E104.09203
G1 X166.962 Y149.536 E104.17345
G1 X166.176 Y151.052 E104.26887
G1 X165.017 Y152.134 E104.35747
G1 X163.647 Y152.95 E104.44657
G1 X163.358 Y153.053 E104.46371
G1 X161.911 Y153.271 E104.54548
G1 X158.245 Y153.3 E104.75033
G1 X157.664 Y153.162 E104.7837
G1 X157.101 Y153.255 E104.81558
G1 X77.942 Y153.3 E109.23875
G1 X77.376 Y153.162 E109.27131
G1 X76.645 Y153.27 E109.3126
G1 X72.856 Y153.3 E109.52432
G1 X71.481 Y152.965 E109.6034
G1 X69.938 Y152.166 E109.70049
G1 X68.862 Y151.013 E109.78861
G1 X67.962 Y149.505 E109.88674
G1 X67.74 Y148.154 E109.96324
G1 X67.69 Y86.879 E113.38711
G1 X68.038 Y85.464 E113.46853
G1 X68.824 Y83.948 E113.56395
G1 X69.983 Y82.866 E113.65255
G0 F6000 X70.222 Y83.19
G1 F1200 X71.558 Y82.394 E113.73945
G1 X71.702 Y82.343 E113.74798
G1 X73.149 Y82.125 E113.82975
G1 X76.81 Y82.1 E114.03432
G1 X77.422 Y82.246 E114.06947
G1 X78.064 Y82.14 E114.10583
G1 X157.108 Y82.1 E118.52258
G1 X157.704 Y82.245 E118.55685
G1 X158.458 Y82.13 E118.59947
G1 X162.096 Y82.1 E118.80276
G1 X163.38 Y82.413 E118.8766
G1 X164.817 Y83.157 E118.96702
G1 X165.817 Y84.229 E119.04894
G1 X166.655 Y85.633 E119.1403
G1 X166.865 Y86.911 E119.21267
G1 X166.91 Y148.075 E122.63033
G1 X166.586 Y149.393 E122.70617
G1 X165.853 Y150.807 E122.79517
G1 X164.778 Y151.81 E122.87732
G1 X163.442 Y152.606 E122.96422
G1 X163.298 Y152.657 E122.97276
G1 X161.851 Y152.875 E123.05452
G1 X158.29 Y152.9 E123.2535
G1 X157.678 Y152.754 E123.28866
G1 X157.036 Y152.86 E123.32502
G1 X77.992 Y152.9 E127.74176
G1 X77.396 Y152.755 E127.77604
G1 X76.642 Y152.87 E127.81866
G1 X72.904 Y152.9 E128.02753
G1 X71.62 Y152.587 E128.10138
G1 X70.183 Y151.843 E128.1918
G1 X69.183 Y150.771 E128.27371
G1 X68.345 Y149.367 E128.36508
G1 X68.135 Y148.089 E128.43745
G1 X68.09 Y86.925 E131.85511
G1 X68.414 Y85.607 E131.93095
G1 X69.147 Y84.193 E132.01994
G1 X70.222 Y83.19 E132.1021
G0 F6000 X70.464 Y83.512
G1 F1200 X71.763 Y82.738 E132.18659
G1 X73.152 Y82.525 E132.26511
G1 X76.764 Y82.5 E132.46694
G1 X77.408 Y82.654 E132.50394
G1 X78.129 Y82.535 E132.54477
G1 X157.058 Y82.5 E136.95509
G1 X157.686 Y82.653 E136.99121
G1 X158.461 Y82.53 E137.03506
G1 X162.048 Y82.5 E137.23549
G1 X163.241 Y82.791 E137.30411
G1 X164.57 Y83.479 E137.38773
G1 X165.498 Y84.474 E137.46376
G1 X166.272 Y85.771 E137.54815
G1 X166.47 Y86.976 E137.61639
G1 X166.51 Y148.029 E141.02785
G1 X166.21 Y149.25 E141.0981
G1 X165.531 Y150.56 E141.18055
G1 X164.536 Y151.488 E141.25658
G1 X163.237 Y152.262 E141.34107
G1 X161.848 Y152.475 E141.41959
G1 X158.336 Y152.5 E141.61583
G1 X157.692 Y152.346 E141.65283
G1 X156.971 Y152.465 E141.69367
G1 X78.042 Y152.5 E146.10398
G1 X77.414 Y152.347 E146.1401
G1 X76.639 Y152.47 E146.18395
G1 X72.952 Y152.5 E146.38997
G1 X71.759 Y152.209 E146.45859
G1 X70.43 Y151.521 E146.54221
G1 X69.502 Y150.526 E146.61824
G1 X68.728 Y149.229 E146.70263
G1 X68.53 Y148.024 E146.77087
G1 X68.49 Y86.971 E150.18233
G1 X68.79 Y85.75 E150.25258
G1 X69.469 Y84.44 E150.33503
G1 X70.464 Y83.512 E150.41106
G0 F6000 X70.706 Y83.834
G1 F1200 X71.902 Y83.121 E150.48886
G1 X73.155 Y82.925 E150.55972
G1 X76.718 Y82.9 E150.75882
G1 X77.394 Y83.062 E150.79766
G1 X78.194 Y82.93 E150.84297
G1 X157.008 Y82.9 E155.24686
G1 X157.671 Y83.062 E155.285
G1 X158.464 Y82.93 E155.32992
G1 X162 Y82.9 E155.5275
G1 X163.102 Y83.169 E155.59089
G1 X164.323 Y83.801 E155.66771
G1 X165.176 Y84.716 E155.73761
G1 X165.889 Y85.911 E155.81537
G1 X166.075 Y87.041 E155.87936
G1 X166.11 Y147.983 E159.28462
G1 X165.834 Y149.107 E159.34929
G1 X165.209 Y150.313 E159.42519
G1 X164.294 Y151.166 E159.49509
G1 X163.098 Y151.879 E159.57289
G1 X161.845 Y152.075 E159.64375
G1 X158.382 Y152.1 E159.83726
G1 X157.706 Y151.938 E159.8761
G1 X156.906 Y152.07 E159.92141
G1 X78.092 Y152.1 E164.3253
G1 X77.429 Y151.938 E164.36344
G1 X76.636 Y152.07 E164.40836
G1 X73 Y152.1 E164.61153
G1 X71.898 Y151.831 E164.67492
G1 X70.677 Y151.199 E164.75174
G1 X69.824 Y150.284 E164.82164
G1 X69.111 Y149.089 E164.8994
G1 X68.925 Y147.959 E164.96339
G1 X68.89 Y87.017 E168.36864
G1 X69.166 Y85.893 E168.43332
G1 X69.791 Y84.687 E168.50922
G1 X70.706 Y83.834 E168.57911
G0 F6000 X70.948 Y84.156
G1 F1200 X72.042 Y83.504 E168.65028
G1 X73.158 Y83.325 E168.71343
G1 X76.672 Y83.3 E168.90979
G1 X77.38 Y83.47 E168.95047
G1 X78.194 Y83.33 E168.99663
G1 X156.958 Y83.3 E173.39772
G1 X157.656 Y83.47 E173.43787
G1 X158.467 Y83.33 E173.48385
G1 X161.952 Y83.3 E173.67859
G1 X162.963 Y83.547 E173.73675
G1 X164.076 Y84.123 E173.80677
G1 X164.854 Y84.958 E173.87054
G1 X165.506 Y86.051 E173.94166
G1 X165.68 Y87.106 E174.0014
G1 X165.71 Y147.936 E177.4004
G1 X165.457 Y148.965 E177.45961
G1 X164.887 Y150.066 E177.52889
G1 X164.052 Y150.844 E177.59266
G1 X162.958 Y151.496 E177.66382
G1 X161.842 Y151.675 E177.72698
G1 X158.428 Y151.7 E177.91775
G1 X157.72 Y151.53 E177.95843
G1 X156.906 Y151.67 E178.00459
G1 X78.142 Y151.7 E182.40568
G1 X77.444 Y151.53 E182.44583
G1 X76.633 Y151.67 E182.49181
G1 X73.048 Y151.7 E182.69214
G1 X72.037 Y151.453 E182.75029
G1 X70.924 Y150.877 E182.82032
G1 X70.146 Y150.042 E182.88409
G1 X69.494 Y148.949 E182.9552
G1 X69.32 Y147.894 E183.01495
G1 X69.29 Y87.064 E186.41395
G1 X69.543 Y86.035 E186.47316
G1 X70.113 Y84.934 E186.54244
G1 X70.948 Y84.156 E186.60621
G0 F6000 X71.19 Y84.478
G1 F1200 X72.181 Y83.887 E186.67068
G1 X73.161 Y83.725 E186.72618
G1 X76.625 Y83.7 E186.91975
G1 X77.392 Y83.885 E186.96383
G1 X77.504 Y83.851 E186.97037
G1 X78.26 Y83.725 E187.0132
G1 X156.908 Y83.7 E191.40782
G1 X157.666 Y83.885 E191.45141
G1 X157.777 Y83.851 E191.4579
G1 X158.533 Y83.725 E191.50073
G1 X161.904 Y83.7 E191.68909
G1 X162.824 Y83.925 E191.74201
G1 X163.829 Y84.445 E191.80524
G1 X164.532 Y85.2 E191.86289
G1 X165.123 Y86.191 E191.92736
G1 X165.285 Y87.171 E191.98286
G1 X165.31 Y147.89 E195.37566
G1 X165.081 Y148.822 E195.42929
G1 X164.565 Y149.819 E195.49201
G1 X163.81 Y150.522 E195.54966
G1 X162.819 Y151.113 E195.61413
G1 X161.839 Y151.275 E195.66963
G1 X158.475 Y151.3 E195.85761
G1 X157.708 Y151.115 E195.9017
G1 X157.596 Y151.149 E195.90824
G1 X156.84 Y151.275 E195.95106
G1 X78.192 Y151.3 E200.34568
G1 X77.434 Y151.115 E200.38928
G1 X77.323 Y151.149 E200.39576
G1 X76.567 Y151.275 E200.43859
G1 X73.096 Y151.3 E200.63254
G1 X72.176 Y151.075 E200.68547
G1 X71.171 Y150.555 E200.74869
G1 X70.468 Y149.8 E200.80634
G1 X69.877 Y148.809 E200.87081
G1 X69.715 Y147.829 E200.92631
G1 X69.69 Y87.11 E204.31911
G1 X69.919 Y86.178 E204.37274
G1 X70.435 Y85.181 E204.43547
G1 X71.19 Y84.478 E204.49311
G0 F6000 X71.429 Y84.802
G1 F1200 X72.321 Y84.27 E204.55114
G1 X73.226 Y84.12 E204.6024
G1 X76.578 Y84.1 E204.78971
G1 X77.416 Y84.303 E204.83788
G1 X77.57 Y84.246 E204.84706
G1 X78.326 Y84.12 E204.88989
G1 X156.858 Y84.1 E209.27802
G1 X157.688 Y84.303 E209.32577
G1 X157.843 Y84.246 E209.33499
G1 X158.599 Y84.12 E209.37782
G1 X161.855 Y84.1 E209.55976
G1 X162.685 Y84.303 E209.6075
G1 X163.584 Y84.768 E209.66406
G1 X164.208 Y85.439 E209.71526
G1 X164.74 Y86.331 E209.77329
G1 X164.89 Y87.236 E209.82455
G1 X164.91 Y147.844 E213.21115
G1 X164.705 Y148.679 E213.25919
G1 X164.242 Y149.574 E213.3155
G1 X163.571 Y150.198 E213.3667
G1 X162.679 Y150.73 E213.42473
G1 X161.774 Y150.88 E213.47599
G1 X158.522 Y150.9 E213.6577
G1 X157.684 Y150.697 E213.70588
G1 X157.53 Y150.754 E213.71506
G1 X156.774 Y150.88 E213.75788
G1 X78.242 Y150.9 E218.14602
G1 X77.412 Y150.697 E218.19376
G1 X77.257 Y150.754 E218.20299
G1 X76.501 Y150.88 E218.24582
G1 X73.145 Y150.9 E218.43334
G1 X72.315 Y150.697 E218.48109
G1 X71.416 Y150.232 E218.53764
G1 X70.792 Y149.561 E218.58885
G1 X70.26 Y148.669 E218.64688
G1 X70.11 Y147.764 E218.69814
G1 X70.09 Y87.156 E222.08473
G1 X70.295 Y86.321 E222.13278
G1 X70.758 Y85.426 E222.18908
G1 X71.429 Y84.802 E222.24028
G0 F6000 X71.668 Y85.126
G1 F1200 X72.461 Y84.653 E222.29188
G1 X73.292 Y84.515 E222.33895
G1 X76.531 Y84.5 E222.51993
G1 X77.231 Y84.67 E222.56018
G1 X77.404 Y84.749 E222.57081
G1 X77.636 Y84.641 E222.58511
G1 X78.392 Y84.515 E222.62794
G1 X156.808 Y84.5 E227.00959
G1 X157.502 Y84.67 E227.04951
G1 X157.677 Y84.749 E227.06024
G1 X157.909 Y84.641 E227.07454
G1 X158.665 Y84.515 E227.11737
G1 X161.806 Y84.5 E227.29288
G1 X162.546 Y84.681 E227.33545
G1 X163.339 Y85.091 E227.38533
G1 X163.884 Y85.678 E227.43009
G1 X164.357 Y86.471 E227.48168
G1 X164.495 Y87.302 E227.52875
G1 X164.51 Y147.798 E230.90909
G1 X164.329 Y148.536 E230.95155
G1 X163.919 Y149.329 E231.00143
G1 X163.332 Y149.874 E231.04619
G1 X162.539 Y150.347 E231.09778
G1 X161.708 Y150.485 E231.14485
G1 X158.569 Y150.5 E231.32025
G1 X157.869 Y150.33 E231.3605
G1 X157.696 Y150.251 E231.37113
G1 X157.464 Y150.359 E231.38543
G1 X156.708 Y150.485 E231.42825
G1 X78.292 Y150.5 E235.80991
G1 X77.598 Y150.33 E235.84983
G1 X77.423 Y150.251 E235.86056
G1 X77.191 Y150.359 E235.87486
G1 X76.435 Y150.485 E235.91769
G1 X73.194 Y150.5 E236.09878
