;FLAVOR:Marlin
;TIME:11920
;Filament used: 12.013m
;Layer height: 0.28
;MINX:28.013
;MINY:79.7
;MINZ:0.28
;MAXX:206.987
;MAXY:155.3
;MAXZ:4.76
;Generated with Cura_SteamEngine 5.4.0
M140 S100
M105
M190 S100
M104 S240
M105
M109 S240
M82 ;absolute extrusion mode
M201 X500.00 Y500.00 Z100.00 E5000.00 ;Setup machine max acceleration
M203 X500.00 Y500.00 Z10.00 E50.00 ;Setup machine max feedrate
M204 P500.00 R1000.00 T500.00 ;Setup Print/Retract/Travel acceleration
M205 X8.00 Y8.00 Z0.40 E5.00 ;Setup Jerk
M220 S100 ;Reset Feedrate
M221 S100 ;Reset Flowrate

G28 ;Home

G92 E0 ;Reset Extruder
G1 Z2.0 F3000 ;Move Z Axis up
G1 X10.1 Y20 Z0.28 F5000.0 ;Move to start position
G1 X10.1 Y200.0 Z0.28 F1500.0 E15 ;Draw the first line
G1 X10.4 Y200.0 Z0.28 F5000.0 ;Move to side a little
G1 X10.4 Y20 Z0.28 F1500.0 E30 ;Draw the second line
G92 E0 ;Reset Extruder
G1 Z2.0 F3000 ;Move Z Axis up

G92 E0
G92 E0
G1 F1500 E-6.5
;LAYER_COUNT:17
;LAYER:0
M107
G0 F6000 X33.116 Y80.057 Z0.28
;TYPE:SKIRT
G1 F1500 E0
G1 F1200 X34.834 Y79.775 E0.09728
G1 X200.04 Y79.7 E9.3285
G1 X201.936 Y80.166 E9.4376
G1 X203.964 Y81.219 E9.56528
G1 X205.423 Y82.78 E9.68467
G1 X206.63 Y84.803 E9.8163
G1 X206.912 Y86.521 E9.91358
G1 X206.987 Y148.353 E13.36858
G1 X206.521 Y150.249 E13.47767
G1 X205.468 Y152.277 E13.60535
G1 X203.907 Y153.736 E13.72475
G1 X201.884 Y154.943 E13.85638
G1 X200.166 Y155.225 E13.95366
G1 X34.96 Y155.3 E23.18488
G1 X33.064 Y154.834 E23.29397
G1 X31.036 Y153.781 E23.42166
G1 X29.577 Y152.22 E23.54105
G1 X28.37 Y150.197 E23.67268
G1 X28.088 Y148.479 E23.76996
G1 X28.013 Y86.647 E27.22495
G1 X28.479 Y84.751 E27.33405
G1 X29.532 Y82.723 E27.46173
G1 X31.093 Y81.264 E27.58112
G1 X33.116 Y80.057 E27.71275
G0 F6000 X33.256 Y80.44
G1 F1200 X34.899 Y80.17 E27.80579
G1 X199.994 Y80.1 E37.03081
G1 X201.793 Y80.542 E37.13432
G1 X203.719 Y81.542 E37.25558
G1 X205.099 Y83.019 E37.36853
G1 X206.247 Y84.943 E37.49372
G1 X206.517 Y86.586 E37.58676
G1 X206.587 Y148.307 E41.03555
G1 X206.145 Y150.106 E41.13906
G1 X205.145 Y152.032 E41.26032
G1 X203.668 Y153.412 E41.37327
G1 X201.744 Y154.56 E41.49846
G1 X200.101 Y154.83 E41.59149
G1 X35.006 Y154.9 E50.81651
G1 X33.207 Y154.458 E50.92003
G1 X31.281 Y153.458 E51.04129
G1 X29.901 Y151.981 E51.15423
G1 X28.753 Y150.057 E51.27942
G1 X28.483 Y148.414 E51.37246
G1 X28.413 Y86.693 E54.82125
G1 X28.855 Y84.894 E54.92476
G1 X29.855 Y82.968 E55.04602
G1 X31.332 Y81.588 E55.15897
G1 X33.256 Y80.44 E55.28416
G0 F6000 X33.394 Y80.823
G1 F1200 X34.964 Y80.565 E55.37306
G1 X199.947 Y80.5 E64.59182
G1 X201.651 Y80.919 E64.68988
G1 X203.474 Y81.865 E64.80464
G1 X204.778 Y83.261 E64.91138
G1 X205.864 Y85.081 E65.0298
G1 X206.122 Y86.651 E65.11871
G1 X206.187 Y148.26 E68.56124
G1 X205.768 Y149.964 E68.65929
G1 X204.822 Y151.787 E68.77405
G1 X203.426 Y153.091 E68.88079
G1 X201.606 Y154.177 E68.99922
G1 X200.036 Y154.435 E69.08812
G1 X35.053 Y154.5 E78.30688
G1 X33.349 Y154.081 E78.40493
G1 X31.526 Y153.135 E78.51969
G1 X30.222 Y151.739 E78.62644
G1 X29.136 Y149.919 E78.74486
G1 X28.878 Y148.349 E78.83376
G1 X28.813 Y86.74 E82.27629
G1 X29.232 Y85.036 E82.37434
G1 X30.178 Y83.213 E82.48911
G1 X31.574 Y81.909 E82.59585
G1 X33.394 Y80.823 E82.71427
G0 F6000 X33.532 Y81.206
G1 F1200 X35.029 Y80.96 E82.79904
G1 X199.901 Y80.9 E92.0116
G1 X201.508 Y81.295 E92.10407
G1 X203.229 Y82.188 E92.21241
G1 X204.457 Y83.503 E92.31294
G1 X205.481 Y85.219 E92.4246
G1 X205.727 Y86.716 E92.50937
G1 X205.787 Y148.214 E95.9457
G1 X205.392 Y149.821 E96.03817
G1 X204.499 Y151.542 E96.14651
G1 X203.184 Y152.77 E96.24704
G1 X201.468 Y153.794 E96.3587
G1 X199.971 Y154.04 E96.44347
G1 X35.099 Y154.1 E105.65603
G1 X33.492 Y153.705 E105.7485
G1 X31.771 Y152.812 E105.85683
G1 X30.543 Y151.497 E105.95737
G1 X29.519 Y149.781 E106.06903
G1 X29.273 Y148.284 E106.1538
G1 X29.213 Y86.786 E109.59013
G1 X29.608 Y85.179 E109.68259
G1 X30.501 Y83.458 E109.79093
G1 X31.816 Y82.23 E109.89147
G1 X33.532 Y81.206 E110.00313
G0 F6000 X33.67 Y81.589
G1 F1200 X35.094 Y81.355 E110.08376
G1 X199.855 Y81.3 E119.29012
G1 X201.365 Y81.671 E119.377
G1 X202.984 Y82.511 E119.47892
G1 X204.136 Y83.745 E119.57325
G1 X205.098 Y85.357 E119.67814
G1 X205.332 Y86.781 E119.75878
G1 X205.387 Y148.168 E123.1889
G1 X205.016 Y149.678 E123.27579
G1 X204.176 Y151.297 E123.3777
G1 X202.942 Y152.449 E123.47203
G1 X201.33 Y153.411 E123.57693
G1 X199.906 Y153.645 E123.65756
G1 X35.145 Y153.7 E132.86392
G1 X33.635 Y153.329 E132.9508
G1 X32.016 Y152.489 E133.05272
G1 X30.864 Y151.255 E133.14705
G1 X29.902 Y149.643 E133.25194
G1 X29.668 Y148.219 E133.33258
G1 X29.613 Y86.832 E136.7627
G1 X29.984 Y85.322 E136.84958
G1 X30.824 Y83.703 E136.9515
G1 X32.058 Y82.551 E137.04583
G1 X33.67 Y81.589 E137.15072
G0 F6000 X33.808 Y81.972
G1 F1200 X35.159 Y81.75 E137.22723
G1 X199.808 Y81.7 E146.42732
G1 X201.223 Y82.048 E146.50874
G1 X202.739 Y82.834 E146.60416
G1 X203.815 Y83.987 E146.69229
G1 X204.715 Y85.495 E146.79041
G1 X204.937 Y86.846 E146.86692
G1 X204.987 Y148.121 E150.29078
G1 X204.639 Y149.536 E150.3722
G1 X203.853 Y151.052 E150.46762
G1 X202.7 Y152.128 E150.55574
G1 X201.192 Y153.028 E150.65387
G1 X199.841 Y153.25 E150.73038
G1 X35.192 Y153.3 E159.93047
G1 X33.777 Y152.952 E160.01189
G1 X32.261 Y152.166 E160.10731
G1 X31.185 Y151.013 E160.19544
G1 X30.285 Y149.505 E160.29356
G1 X30.063 Y148.154 E160.37007
G1 X30.013 Y86.879 E163.79393
G1 X30.361 Y85.464 E163.87535
G1 X31.147 Y83.948 E163.97077
G1 X32.3 Y82.872 E164.05889
G1 X33.808 Y81.972 E164.15702
G0 F6000 X33.946 Y82.355
G1 F1200 X35.224 Y82.145 E164.22939
G1 X199.762 Y82.1 E173.42329
G1 X201.08 Y82.424 E173.49913
G1 X202.494 Y83.157 E173.58812
G1 X203.494 Y84.229 E173.67004
G1 X204.332 Y85.633 E173.7614
G1 X204.542 Y86.911 E173.83377
G1 X204.587 Y148.075 E177.25143
G1 X204.263 Y149.393 E177.32727
G1 X203.53 Y150.807 E177.41627
G1 X202.458 Y151.807 E177.49818
G1 X201.054 Y152.645 E177.58954
G1 X199.776 Y152.855 E177.66191
G1 X35.238 Y152.9 E186.85581
G1 X33.92 Y152.576 E186.93165
G1 X32.506 Y151.843 E187.02064
G1 X31.506 Y150.771 E187.10256
G1 X30.668 Y149.367 E187.19392
G1 X30.458 Y148.089 E187.26629
G1 X30.413 Y86.925 E190.68395
G1 X30.737 Y85.607 E190.75979
G1 X31.47 Y84.193 E190.84879
G1 X32.542 Y83.193 E190.9307
G1 X33.946 Y82.355 E191.02207
G0 F6000 X34.084 Y82.738
G1 F1200 X35.289 Y82.54 E191.0903
G1 X199.716 Y82.5 E200.27799
G1 X200.937 Y82.8 E200.34825
G1 X202.247 Y83.479 E200.43069
G1 X203.175 Y84.474 E200.50672
G1 X203.949 Y85.771 E200.59112
G1 X204.147 Y86.976 E200.65935
G1 X204.187 Y148.029 E204.07081
G1 X203.887 Y149.25 E204.14107
G1 X203.208 Y150.56 E204.22351
G1 X202.213 Y151.488 E204.29954
G1 X200.916 Y152.262 E204.38394
G1 X199.711 Y152.46 E204.45217
G1 X35.284 Y152.5 E213.63986
G1 X34.063 Y152.2 E213.71012
G1 X32.753 Y151.521 E213.79257
G1 X31.825 Y150.526 E213.86859
G1 X31.051 Y149.229 E213.95299
G1 X30.853 Y148.024 E214.02122
G1 X30.813 Y86.971 E217.43268
G1 X31.113 Y85.75 E217.50294
G1 X31.792 Y84.44 E217.58539
G1 X32.787 Y83.512 E217.66141
G1 X34.084 Y82.738 E217.74581
G0 F6000 X34.224 Y83.121
G1 F1200 X35.354 Y82.935 E217.8098
G1 X199.67 Y82.9 E226.99129
G1 X200.794 Y83.176 E227.05596
G1 X202 Y83.801 E227.13186
G1 X202.853 Y84.716 E227.20176
G1 X203.566 Y85.911 E227.27951
G1 X203.752 Y87.041 E227.3435
G1 X203.787 Y147.983 E230.74876
G1 X203.511 Y149.107 E230.81343
G1 X202.886 Y150.313 E230.88933
G1 X201.971 Y151.166 E230.95923
G1 X200.776 Y151.879 E231.03699
G1 X199.646 Y152.065 E231.10098
G1 X35.33 Y152.1 E240.28247
G1 X34.206 Y151.824 E240.34714
G1 X33 Y151.199 E240.42304
G1 X32.147 Y150.284 E240.49294
G1 X31.434 Y149.089 E240.57069
G1 X31.248 Y147.959 E240.63468
G1 X31.213 Y87.017 E244.03994
G1 X31.489 Y85.893 E244.10461
G1 X32.114 Y84.687 E244.18051
G1 X33.029 Y83.834 E244.25041
G1 X34.224 Y83.121 E244.32817
G0 F6000 X34.364 Y83.504
G1 F1200 X35.419 Y83.33 E244.38791
G1 X199.623 Y83.3 E253.56314
G1 X200.652 Y83.553 E253.62235
G1 X201.753 Y84.123 E253.69163
G1 X202.531 Y84.958 E253.7554
G1 X203.183 Y86.051 E253.82652
G1 X203.357 Y87.106 E253.88626
G1 X203.387 Y147.936 E257.28526
G1 X203.134 Y148.965 E257.34447
G1 X202.564 Y150.066 E257.41375
G1 X201.729 Y150.844 E257.47752
G1 X200.636 Y151.496 E257.54863
G1 X199.581 Y151.67 E257.60838
G1 X35.377 Y151.7 E266.78361
G1 X34.348 Y151.447 E266.84282
G1 X33.247 Y150.877 E266.9121
G1 X32.469 Y150.042 E266.97587
G1 X31.817 Y148.949 E267.04698
G1 X31.643 Y147.894 E267.10673
G1 X31.613 Y87.064 E270.50573
G1 X31.866 Y86.035 E270.56494
G1 X32.436 Y84.934 E270.63422
G1 X33.271 Y84.156 E270.69799
G1 X34.364 Y83.504 E270.7691
G0 F6000 X34.504 Y83.887
G1 F1200 X35.484 Y83.725 E270.8246
G1 X199.577 Y83.7 E279.99363
G1 X200.509 Y83.929 E280.04726
G1 X201.506 Y84.445 E280.10999
G1 X202.209 Y85.2 E280.16763
G1 X202.8 Y86.191 E280.23211
G1 X202.962 Y87.171 E280.28761
G1 X202.987 Y147.89 E283.68041
G1 X202.758 Y148.822 E283.73403
G1 X202.242 Y149.819 E283.79676
G1 X201.487 Y150.522 E283.8544
G1 X200.496 Y151.113 E283.91888
G1 X199.516 Y151.275 E283.97438
G1 X35.423 Y151.3 E293.14341
G1 X34.491 Y151.071 E293.19704
G1 X33.494 Y150.555 E293.25976
G1 X32.791 Y149.8 E293.31741
G1 X32.2 Y148.809 E293.38188
G1 X32.038 Y147.829 E293.43738
G1 X32.013 Y87.11 E296.83018
G1 X32.242 Y86.178 E296.88381
G1 X32.758 Y85.181 E296.94654
G1 X33.513 Y84.478 E297.00418
G1 X34.504 Y83.887 E297.06865
G0 F6000 X34.644 Y84.27
G1 F1200 X35.549 Y84.12 E297.11991
G1 X199.531 Y84.1 E306.28274
G1 X200.366 Y84.305 E306.33078
G1 X201.261 Y84.768 E306.38709
G1 X201.885 Y85.439 E306.43829
G1 X202.417 Y86.331 E306.49632
G1 X202.567 Y87.236 E306.54758
G1 X202.587 Y147.844 E309.93417
G1 X202.382 Y148.679 E309.98222
G1 X201.919 Y149.574 E310.03852
G1 X201.248 Y150.198 E310.08972
G1 X200.356 Y150.73 E310.14776
G1 X199.451 Y150.88 E310.19902
G1 X35.469 Y150.9 E319.36184
G1 X34.634 Y150.695 E319.40989
G1 X33.739 Y150.232 E319.46619
G1 X33.115 Y149.561 E319.51739
G1 X32.583 Y148.669 E319.57543
G1 X32.433 Y147.764 E319.62668
G1 X32.413 Y87.156 E323.01328
G1 X32.618 Y86.321 E323.06132
G1 X33.081 Y85.426 E323.11763
G1 X33.752 Y84.802 E323.16883
G1 X34.644 Y84.27 E323.22686
G0 F6000 X34.784 Y84.653
G1 F1200 X35.615 Y84.515 E323.27393
G1 X199.485 Y84.5 E332.4305
G1 X200.223 Y84.681 E332.47296
G1 X201.016 Y85.091 E332.52284
G1 X201.561 Y85.678 E332.5676
G1 X202.034 Y86.471 E332.61919
G1 X202.172 Y87.302 E332.66626
G1 X202.187 Y147.798 E336.0466
G1 X202.006 Y148.536 E336.08906
G1 X201.596 Y149.329 E336.13894
G1 X201.009 Y149.874 E336.1837
G1 X200.216 Y150.347 E336.23529
G1 X199.385 Y150.485 E336.28236
G1 X35.515 Y150.5 E345.43893
G1 X34.777 Y150.319 E345.48139
G1 X33.984 Y149.909 E345.53127
G1 X33.439 Y149.322 E345.57603
G1 X32.966 Y148.529 E345.62762
G1 X32.828 Y147.698 E345.67469
G1 X32.813 Y87.202 E349.05503
G1 X32.994 Y86.464 E349.09749
G1 X33.404 Y85.671 E349.14737
G1 X33.991 Y85.126 E349.19213
G1 X34.784 Y84.653 E349.24372
G0 F6000 X34.924 Y85.036
G1 F1200 X35.681 Y84.91 E349.2866
G1 X199.435 Y84.9 E358.43669
G1 X200.084 Y85.059 E358.47403
G1 X200.771 Y85.414 E358.51724
G1 X201.237 Y85.917 E358.55555
G1 X201.651 Y86.611 E358.60071
G1 X201.777 Y87.368 E358.64359
G1 X201.787 Y147.748 E362.01744
G1 X201.628 Y148.397 E362.05478
G1 X201.273 Y149.084 E362.09799
G1 X200.77 Y149.55 E362.1363
G1 X200.076 Y149.964 E362.18146
G1 X199.319 Y150.09 E362.22434
G1 X35.565 Y150.1 E371.37442
G1 X34.916 Y149.941 E371.41176
G1 X34.229 Y149.586 E371.45497
G1 X33.763 Y149.083 E371.49328
G1 X33.349 Y148.389 E371.53844
G1 X33.223 Y147.632 E371.58132
G1 X33.213 Y87.252 E374.95518
G1 X33.372 Y86.603 E374.99251
G1 X33.727 Y85.916 E375.03572
G1 X34.23 Y85.45 E375.07404
G1 X34.924 Y85.036 E375.11919
G0 F6000 X35.064 Y85.419
G1 F1200 X35.747 Y85.305 E375.15788
G1 X199.385 Y85.3 E384.30149
G1 X199.945 Y85.437 E384.3337
G1 X200.525 Y85.737 E384.37019
G1 X200.913 Y86.156 E384.4021
G1 X201.268 Y86.751 E384.44081
G1 X201.382 Y87.434 E384.4795
G1 X201.387 Y147.698 E387.84688
G1 X201.25 Y148.258 E387.87909
G1 X200.95 Y148.838 E387.91558
G1 X200.531 Y149.226 E387.94749
G1 X199.936 Y149.581 E387.9862
G1 X199.253 Y149.695 E388.02489
G1 X35.615 Y149.7 E397.1685
G1 X35.055 Y149.563 E397.20071
G1 X34.475 Y149.263 E397.2372
G1 X34.087 Y148.844 E397.26911
G1 X33.732 Y148.249 E397.30782
G1 X33.618 Y147.566 E397.34652
G1 X33.613 Y87.302 E400.71389
G1 X33.75 Y86.742 E400.7461
G1 X34.05 Y86.162 E400.78259
G1 X34.469 Y85.774 E400.8145
G1 X35.064 Y85.419 E400.85321
G0 F6000 X35.202 Y85.802
G1 F1200 X35.813 Y85.7 E400.88783
G1 X199.335 Y85.7 E410.02495
G1 X199.806 Y85.815 E410.05204
G1 X200.279 Y86.06 E410.08181
G1 X200.592 Y86.398 E410.10755
G1 X200.885 Y86.889 E410.1395
G1 X200.987 Y87.5 E410.17411
G1 X200.987 Y147.648 E413.535
G1 X200.872 Y148.119 E413.56209
G1 X200.627 Y148.592 E413.59186
G1 X200.289 Y148.905 E413.6176
G1 X199.798 Y149.198 E413.64955
G1 X199.187 Y149.3 E413.68416
G1 X35.665 Y149.3 E422.82128
G1 X35.194 Y149.185 E422.84837
G1 X34.721 Y148.94 E422.87814
G1 X34.408 Y148.602 E422.90388
G1 X34.115 Y148.111 E422.93583
G1 X34.013 Y147.5 E422.97044
G1 X34.013 Y87.352 E426.33133
G1 X34.128 Y86.881 E426.35843
G1 X34.373 Y86.408 E426.38819
G1 X34.711 Y86.095 E426.41393
G1 X35.202 Y85.802 E426.44588
G0 F6000 X35.34 Y86.185
G1 F1200 X35.813 Y86.1 E426.47273
G1 X199.285 Y86.1 E435.60706
G1 X199.667 Y86.193 E435.62903
G1 X200.033 Y86.383 E435.65207
G1 X200.271 Y86.64 E435.67165
G1 X200.502 Y87.027 E435.69683
G1 X200.587 Y87.5 E435.72368
G1 X200.587 Y147.598 E439.08178
G1 X200.494 Y147.98 E439.10375
G1 X200.304 Y148.346 E439.12679
G1 X200.047 Y148.584 E439.14636
G1 X199.66 Y148.815 E439.17155
G1 X199.187 Y148.9 E439.1984
G1 X35.715 Y148.9 E448.33273
G1 X35.333 Y148.807 E448.3547
G1 X34.967 Y148.617 E448.37774
G1 X34.729 Y148.36 E448.39731
G1 X34.498 Y147.973 E448.4225
G1 X34.413 Y147.5 E448.44935
G1 X34.413 Y87.402 E451.80745
G1 X34.506 Y87.02 E451.82942
G1 X34.696 Y86.654 E451.85246
G1 X34.953 Y86.416 E451.87203
G1 X35.34 Y86.185 E451.89722
G0 F6000 X35.485 Y86.565
G1 F1200 X35.813 Y86.5 E451.9159
G1 X199.236 Y86.5 E461.04749
G1 X199.525 Y86.57 E461.06411
G1 X199.788 Y86.707 E461.08068
G1 X199.927 Y86.845 E461.09162
G1 X200.122 Y87.172 E461.11289
G1 X200.187 Y87.5 E461.13158
G1 X200.187 Y147.549 E464.48694
G1 X200.117 Y147.838 E464.50355
G1 X199.98 Y148.101 E464.52012
G1 X199.842 Y148.24 E464.53107
G1 X199.515 Y148.435 E464.55234
G1 X199.187 Y148.5 E464.57103
G1 X35.764 Y148.5 E473.70262
G1 X35.475 Y148.43 E473.71923
G1 X35.212 Y148.293 E473.7358
G1 X35.073 Y148.155 E473.74675
G1 X34.878 Y147.828 E473.76802
G1 X34.813 Y147.5 E473.78671
G1 X34.813 Y87.451 E477.14207
G1 X34.883 Y87.162 E477.15868
G1 X35.02 Y86.899 E477.17525
G1 X35.158 Y86.76 E477.1862
G1 X35.485 Y86.565 E477.20747
G0 F6000 X35.813 Y87.3
G1 F1200 X199.187 Y87.3 E486.33632
G1 X199.306 Y87.339 E486.34332
G1 X199.387 Y87.5 E486.35339
G1 X199.387 Y147.5 E489.70601
G1 X199.348 Y147.619 E489.71301
G1 X199.187 Y147.7 E489.72308
G1 X35.813 Y147.7 E498.85193
G1 X35.694 Y147.661 E498.85893
G1 X35.613 Y147.5 E498.869
G1 X35.613 Y87.5 E502.22162
G1 X35.652 Y87.381 E502.22862
G1 X35.813 Y87.3 E502.23869
G0 F6000 X35.633 Y86.943
G1 F1200 X35.813 Y86.9 E502.24903
G1 X199.187 Y86.9 E511.37789
G1 X199.431 Y86.959 E511.39191
G1 X199.583 Y87.05 E511.40181
G1 X199.744 Y87.32 E511.41938
G1 X199.787 Y87.5 E511.42972
G1 X199.787 Y147.5 E514.78234
G1 X199.728 Y147.744 E514.79637
G1 X199.637 Y147.896 E514.80626
G1 X199.367 Y148.057 E514.82383
G1 X199.187 Y148.1 E514.83417
G1 X35.813 Y148.1 E523.96302
G1 X35.569 Y148.041 E523.97705
G1 X35.417 Y147.95 E523.98695
G1 X35.256 Y147.68 E524.00452
G1 X35.213 Y147.5 E524.01486
G1 X35.213 Y87.5 E527.36748
G1 X35.272 Y87.256 E527.38151
G1 X35.363 Y87.104 E527.3914
G1 X35.633 Y86.943 E527.40897
G1 F1500 E520.90897
;MESH:OCXOController - Back^OCXOController-1.STL
G0 F6000 X123.155 Y132.809
G0 X123.486 Y134.991
G0 X123.608 Y135.45
G0 X123.81 Y135.882
G0 X124.082 Y136.269
G0 X124.418 Y136.605
G0 X124.805 Y136.877
G0 X125.237 Y137.079
G0 X125.742 Y137.169
G0 X132.517 Y137.75
;TYPE:WALL-INNER
G1 F1500 E527.40897
G1 F1200 X132.069 Y137.795 E527.43413
G1 X126.171 Y137.8 E527.76369
