;FLAVOR:Marlin
;TIME:17964
;Filament used: 18.4061m
;Layer height: 0.28
;MINX:24.413
;MINY:65.69
;MINZ:0.28
;MAXX:210.587
;MAXY:169.31
;MAXZ:10.08
;Generated with Cura_SteamEngine 5.4.0
M140 S100
M105
M190 S100
M104 S240
M105
M109 S240
M82 ;absolute extrusion mode
M201 X500.00 Y500.00 Z100.00 E5000.00 ;Setup machine max acceleration
M203 X500.00 Y500.00 Z10.00 E50.00 ;Setup machine max feedrate
M204 P500.00 R1000.00 T500.00 ;Setup Print/Retract/Travel acceleration
M205 X8.00 Y8.00 Z0.40 E5.00 ;Setup Jerk
M220 S100 ;Reset Feedrate
M221 S100 ;Reset Flowrate

G28 ;Home

G92 E0 ;Reset Extruder
G1 Z2.0 F3000 ;Move Z Axis up
G1 X10.1 Y20 Z0.28 F5000.0 ;Move to start position
G1 X10.1 Y200.0 Z0.28 F1500.0 E15 ;Draw the first line
G1 X10.4 Y200.0 Z0.28 F5000.0 ;Move to side a little
G1 X10.4 Y20 Z0.28 F1500.0 E30 ;Draw the second line
G92 E0 ;Reset Extruder
G1 Z2.0 F3000 ;Move Z Axis up

G92 E0
G92 E0
G1 F1500 E-6.5
;LAYER_COUNT:36
;LAYER:0
M107
G0 F6000 X30.89 Y66.967 Z0.28
;TYPE:SKIRT
G1 F1500 E0
G1 F1200 X32.295 Y66.314 E0.08657
G1 X34.835 Y65.771 E0.23171
G1 X35.549 Y65.709 E0.27175
G1 X198.786 Y65.69 E9.39295
G1 X201.462 Y65.995 E9.54345
G1 X203.151 Y66.548 E9.64275
G1 X205.053 Y67.461 E9.76064
G1 X206.737 Y68.793 E9.88061
G1 X207.823 Y69.93 E9.96847
G1 X209.111 Y71.709 E10.09119
G1 X209.94 Y73.701 E10.21176
G1 X210.389 Y75.475 E10.31401
G1 X210.587 Y77.489 E10.42709
G1 X210.526 Y158.49 E14.95318
G1 X210.279 Y160.138 E15.0463
G1 X209.903 Y161.508 E15.12568
G1 X208.736 Y163.879 E15.27334
G1 X207.736 Y165.183 E15.36516
G1 X206.39 Y166.576 E15.4734
G1 X204.157 Y168.005 E15.62154
G1 X202.694 Y168.686 E15.71171
G1 X200.305 Y169.197 E15.84822
G1 X198.786 Y169.31 E15.93333
G1 X35.505 Y169.264 E25.05698
G1 X33.527 Y168.984 E25.16861
G1 X32.098 Y168.547 E25.25211
G1 X29.876 Y167.482 E25.38979
G1 X28.611 Y166.516 E25.47873
G1 X27.035 Y164.9 E25.60486
G1 X25.904 Y163.327 E25.71312
G1 X25.146 Y161.554 E25.82086
G1 X24.548 Y159.139 E25.95988
G1 X24.413 Y157.511 E26.05116
G1 X24.474 Y76.51 E30.57725
G1 X24.721 Y74.862 E30.67037
G1 X25.097 Y73.493 E30.7497
G1 X26.264 Y71.121 E30.89741
G1 X27.233 Y69.853 E30.98658
G1 X28.613 Y68.425 E31.09754
G1 X30.89 Y66.967 E31.24862
G0 F6000 X31.058 Y67.33
G1 F1200 X32.423 Y66.696 E31.33272
G1 X34.87 Y66.17 E31.47258
G1 X35.584 Y66.108 E31.51262
G1 X198.786 Y66.09 E40.63187
G1 X201.376 Y66.387 E40.77754
G1 X202.978 Y66.909 E40.87168
G1 X204.84 Y67.803 E40.9871
G1 X206.448 Y69.07 E41.10149
G1 X207.499 Y70.165 E41.1863
G1 X208.76 Y71.907 E41.30646
G1 X209.552 Y73.8 E41.42112
G1 X209.991 Y75.515 E41.52004
G1 X210.187 Y77.489 E41.63088
G1 X210.13 Y158.431 E46.15368
G1 X209.893 Y160.032 E46.24412
G1 X209.527 Y161.365 E46.32136
G1 X208.394 Y163.667 E46.46472
G1 X207.448 Y164.905 E46.55178
G1 X206.135 Y166.264 E46.65737
G1 X203.988 Y167.642 E46.79992
G1 X202.564 Y168.305 E46.88769
G1 X200.275 Y168.798 E47.01853
G1 X198.786 Y168.91 E47.10196
G1 X35.561 Y168.868 E56.22249
G1 X33.583 Y168.588 E56.33412
G1 X32.271 Y168.186 E56.41079
G1 X30.086 Y167.139 E56.54618
G1 X28.854 Y166.198 E56.6328
G1 X27.36 Y164.667 E56.75233
G1 X26.255 Y163.13 E56.85811
G1 X25.514 Y161.397 E56.96342
G1 X24.947 Y159.106 E57.0953
G1 X24.813 Y157.511 E57.18474
G1 X24.87 Y76.569 E61.70753
G1 X25.107 Y74.968 E61.79797
G1 X25.473 Y73.635 E61.87521
G1 X26.607 Y71.33 E62.01875
G1 X27.521 Y70.131 E62.10299
G1 X28.868 Y68.737 E62.21131
G1 X31.058 Y67.33 E62.35676
G0 F6000 X31.227 Y67.693
G1 F1200 X32.553 Y67.077 E62.43845
G1 X34.905 Y66.569 E62.57291
G1 X35.619 Y66.507 E62.61295
G1 X198.786 Y66.49 E71.73024
G1 X201.287 Y66.779 E71.87092
G1 X202.805 Y67.27 E71.96007
G1 X204.627 Y68.145 E72.07301
G1 X206.16 Y69.348 E72.18189
G1 X207.175 Y70.4 E72.26357
G1 X208.409 Y72.104 E72.38113
G1 X209.164 Y73.899 E72.48994
G1 X209.603 Y75.614 E72.58886
G1 X209.787 Y77.489 E72.69414
G1 X209.734 Y158.373 E77.21369
G1 X209.507 Y159.926 E77.30139
G1 X209.151 Y161.223 E77.37655
G1 X208.051 Y163.458 E77.51574
G1 X207.16 Y164.627 E77.59787
G1 X205.877 Y165.955 E77.70105
G1 X203.819 Y167.279 E77.83778
G1 X202.435 Y167.924 E77.9231
G1 X200.245 Y168.399 E78.04832
G1 X198.786 Y168.51 E78.13008
G1 X35.617 Y168.472 E87.24748
G1 X33.639 Y168.192 E87.35911
G1 X32.444 Y167.825 E87.42896
G1 X30.296 Y166.796 E87.56204
G1 X29.097 Y165.88 E87.64635
G1 X27.685 Y164.433 E87.75932
G1 X26.605 Y162.931 E87.86269
G1 X25.882 Y161.24 E87.96546
G1 X25.346 Y159.072 E88.09024
G1 X25.213 Y157.511 E88.17778
G1 X25.266 Y76.627 E92.69734
G1 X25.493 Y75.074 E92.78504
G1 X25.849 Y73.777 E92.8602
G1 X26.949 Y71.542 E92.99939
G1 X27.809 Y70.409 E93.07887
G1 X29.124 Y69.048 E93.18461
G1 X31.227 Y67.693 E93.3244
G0 F6000 X31.396 Y68.056
G1 F1200 X32.682 Y67.458 E93.40365
G1 X34.94 Y66.968 E93.53276
G1 X35.654 Y66.906 E93.5728
G1 X198.786 Y66.89 E102.68814
G1 X201.2 Y67.171 E102.82393
G1 X202.632 Y67.631 E102.90798
G1 X204.417 Y68.488 E103.01862
G1 X205.873 Y69.627 E103.12191
G1 X206.851 Y70.635 E103.20039
G1 X208.059 Y72.304 E103.31551
G1 X208.776 Y73.998 E103.4183
G1 X209.215 Y75.713 E103.51721
G1 X209.387 Y77.489 E103.61692
G1 X209.338 Y158.316 E108.13329
G1 X209.121 Y159.82 E108.2182
G1 X208.775 Y161.08 E108.29121
G1 X207.709 Y163.246 E108.4261
G1 X206.872 Y164.349 E108.50347
G1 X205.62 Y165.644 E108.60412
G1 X203.65 Y166.916 E108.73515
G1 X202.305 Y167.543 E108.81807
G1 X200.214 Y168 E108.93767
G1 X198.786 Y168.11 E109.0177
G1 X35.673 Y168.076 E118.13197
G1 X33.695 Y167.796 E118.24359
G1 X32.617 Y167.464 E118.30662
G1 X30.507 Y166.453 E118.43736
G1 X29.383 Y165.6 E118.5162
G1 X28.01 Y164.199 E118.62581
G1 X26.955 Y162.732 E118.72678
G1 X26.25 Y161.083 E118.82699
G1 X25.745 Y159.038 E118.94469
G1 X25.613 Y157.511 E119.03033
G1 X25.662 Y76.684 E123.5467
G1 X25.879 Y75.18 E123.63161
G1 X26.225 Y73.92 E123.70462
G1 X27.291 Y71.754 E123.83952
G1 X28.128 Y70.651 E123.91688
G1 X29.378 Y69.36 E124.0173
G1 X31.396 Y68.056 E124.15155
G0 F6000 X31.565 Y68.419
G1 F1200 X32.812 Y67.839 E124.2284
G1 X34.975 Y67.367 E124.3521
G1 X35.689 Y67.305 E124.39215
G1 X198.786 Y67.29 E133.50552
G1 X201.115 Y67.564 E133.63656
G1 X202.459 Y67.992 E133.71537
G1 X204.204 Y68.83 E133.82354
G1 X205.586 Y69.906 E133.92141
G1 X206.564 Y70.914 E133.99988
G1 X207.708 Y72.5 E134.10915
G1 X208.388 Y74.097 E134.20614
G1 X208.827 Y75.812 E134.30506
G1 X208.987 Y77.489 E134.39919
G1 X208.942 Y158.26 E138.91244
G1 X208.735 Y159.714 E138.9945
G1 X208.399 Y160.937 E139.06537
G1 X207.367 Y163.034 E139.19597
G1 X206.553 Y164.107 E139.27122
G1 X205.366 Y165.332 E139.36653
G1 X203.481 Y166.553 E139.49203
G1 X202.176 Y167.161 E139.57247
G1 X200.183 Y167.601 E139.68652
G1 X198.786 Y167.71 E139.76482
G1 X35.728 Y167.68 E148.87601
G1 X33.811 Y167.413 E148.98416
G1 X32.79 Y167.103 E149.04378
G1 X30.717 Y166.11 E149.17222
G1 X29.625 Y165.281 E149.24883
G1 X28.335 Y163.965 E149.3518
G1 X27.305 Y162.533 E149.45037
G1 X26.618 Y160.926 E149.54802
G1 X26.143 Y159.003 E149.6587
G1 X26.013 Y157.511 E149.74239
G1 X26.058 Y76.74 E154.25563
G1 X26.265 Y75.286 E154.33769
G1 X26.601 Y74.063 E154.40856
G1 X27.633 Y71.966 E154.53916
G1 X28.447 Y70.893 E154.61442
G1 X29.633 Y69.672 E154.70953
G1 X31.565 Y68.419 E154.8382
G0 F6000 X31.734 Y68.782
G1 F1200 X32.941 Y68.221 E154.91257
G1 X35.01 Y67.766 E155.03094
G1 X35.724 Y67.704 E155.07099
G1 X198.786 Y67.69 E164.18241
G1 X201.032 Y67.957 E164.30879
G1 X202.286 Y68.353 E164.38227
G1 X203.991 Y69.172 E164.48797
G1 X205.34 Y70.222 E164.58349
G1 X206.276 Y71.192 E164.65881
G1 X207.356 Y72.696 E164.76227
G1 X208 Y74.196 E164.85348
G1 X208.439 Y75.911 E164.9524
G1 X208.587 Y77.489 E165.04096
G1 X208.546 Y158.204 E169.55108
G1 X208.349 Y159.608 E169.6303
G1 X208.023 Y160.794 E169.69902
G1 X207.025 Y162.822 E169.82532
G1 X206.234 Y163.865 E169.89846
G1 X205.108 Y165.023 E169.98872
G1 X203.312 Y166.19 E170.1084
G1 X202.046 Y166.78 E170.18644
G1 X200.097 Y167.21 E170.29797
G1 X198.786 Y167.31 E170.37143
G1 X35.782 Y167.284 E179.47961
G1 X33.926 Y167.03 E179.58429
G1 X32.963 Y166.742 E179.64045
G1 X30.927 Y165.767 E179.76659
G1 X29.867 Y164.962 E179.84096
G1 X28.66 Y163.731 E179.93729
G1 X27.655 Y162.334 E180.03346
G1 X26.986 Y160.769 E180.12856
G1 X26.541 Y158.968 E180.23222
G1 X26.413 Y157.511 E180.31395
G1 X26.454 Y76.796 E184.82406
G1 X26.651 Y75.392 E184.90328
G1 X26.977 Y74.206 E184.97201
G1 X27.975 Y72.178 E185.09831
G1 X28.766 Y71.135 E185.17145
G1 X29.89 Y69.981 E185.26146
G1 X31.734 Y68.782 E185.38437
G0 F6000 X31.903 Y69.145
G1 F1200 X33.069 Y68.603 E185.45621
G1 X35.045 Y68.165 E185.56931
G1 X35.759 Y68.103 E185.60935
G1 X198.786 Y68.09 E194.71882
G1 X200.946 Y68.35 E194.84038
G1 X202.113 Y68.714 E194.90869
G1 X203.778 Y69.514 E195.01191
G1 X205.094 Y70.538 E195.10508
G1 X205.987 Y71.469 E195.17716
G1 X207.006 Y72.894 E195.27505
G1 X207.612 Y74.295 E195.36035
G1 X208.051 Y76.01 E195.45926
G1 X208.187 Y77.489 E195.54225
G1 X208.15 Y158.149 E200.0493
G1 X207.963 Y159.502 E200.12562
G1 X207.647 Y160.651 E200.1922
G1 X206.682 Y162.613 E200.31438
G1 X205.947 Y163.586 E200.38251
G1 X204.852 Y164.712 E200.47028
G1 X203.143 Y165.827 E200.5843
G1 X201.916 Y166.399 E200.65994
G1 X200.011 Y166.819 E200.76894
G1 X198.786 Y166.91 E200.83758
G1 X35.835 Y166.888 E209.9428
G1 X34.039 Y166.646 E210.04406
G1 X33.136 Y166.381 E210.09665
G1 X31.137 Y165.424 E210.22048
G1 X30.109 Y164.643 E210.29262
G1 X28.985 Y163.497 E210.38232
G1 X28.005 Y162.135 E210.47608
G1 X27.354 Y160.612 E210.56862
G1 X26.939 Y158.933 E210.66527
G1 X26.813 Y157.511 E210.74503
G1 X26.85 Y76.851 E215.25208
G1 X27.037 Y75.498 E215.3284
G1 X27.353 Y74.349 E215.39498
G1 X28.318 Y72.387 E215.51716
G1 X29.053 Y71.414 E215.58529
G1 X30.147 Y70.29 E215.67294
G1 X31.903 Y69.145 E215.79007
G0 F6000 X32.072 Y69.508
G1 F1200 X33.202 Y68.983 E215.8597
G1 X35.08 Y68.564 E215.96721
G1 X35.794 Y68.502 E216.00726
G1 X198.786 Y68.49 E225.11477
G1 X200.862 Y68.743 E225.23163
G1 X201.94 Y69.075 E225.29465
G1 X203.568 Y69.857 E225.39557
G1 X204.805 Y70.815 E225.483
G1 X205.698 Y71.746 E225.55508
G1 X206.655 Y73.091 E225.64732
G1 X207.224 Y74.394 E225.72676
G1 X207.663 Y76.109 E225.82568
G1 X207.787 Y77.489 E225.9031
G1 X207.754 Y158.095 E230.40713
G1 X207.577 Y159.396 E230.48049
G1 X207.271 Y160.508 E230.54494
G1 X206.339 Y162.403 E230.66294
G1 X205.66 Y163.307 E230.72611
G1 X204.596 Y164.401 E230.81139
G1 X202.974 Y165.464 E230.91975
G1 X201.786 Y166.018 E230.99299
G1 X199.925 Y166.428 E231.09947
G1 X198.786 Y166.51 E231.16328
G1 X35.835 Y166.488 E240.2685
G1 X34.152 Y166.262 E240.36339
G1 X33.249 Y165.997 E240.41597
G1 X31.349 Y165.082 E240.53381
G1 X30.351 Y164.324 E240.60383
G1 X29.31 Y163.263 E240.68689
G1 X28.355 Y161.936 E240.77824
G1 X27.722 Y160.455 E240.86824
G1 X27.337 Y158.897 E240.95791
G1 X27.213 Y157.511 E241.03567
G1 X27.246 Y76.905 E245.53969
G1 X27.423 Y75.604 E245.61306
G1 X27.729 Y74.492 E245.6775
G1 X28.661 Y72.597 E245.7955
G1 X29.34 Y71.693 E245.85868
G1 X30.403 Y70.601 E245.94383
G1 X32.072 Y69.508 E246.05531
G0 F6000 X32.241 Y69.871
G1 F1200 X33.334 Y69.363 E246.12266
G1 X35.115 Y68.963 E246.22465
G1 X35.829 Y68.901 E246.2647
G1 X198.786 Y68.89 E255.37025
G1 X200.746 Y69.126 E255.48056
G1 X201.767 Y69.436 E255.54018
G1 X203.358 Y70.2 E255.6388
G1 X204.517 Y71.093 E255.72056
G1 X205.372 Y71.978 E255.78932
G1 X206.306 Y73.29 E255.87931
G1 X206.836 Y74.493 E255.95276
G1 X207.275 Y76.208 E256.05168
G1 X207.387 Y77.489 E256.12353
G1 X207.357 Y158.042 E260.62459
G1 X207.191 Y159.29 E260.69494
G1 X206.895 Y160.365 E260.75725
G1 X205.996 Y162.193 E260.87107
G1 X205.373 Y163.028 E260.92929
G1 X204.34 Y164.09 E261.01207
G1 X202.755 Y165.129 E261.11797
G1 X201.658 Y165.636 E261.1855
G1 X199.839 Y166.037 E261.28958
G1 X198.786 Y166.11 E261.34856
G1 X35.835 Y166.088 E270.45377
G1 X34.265 Y165.878 E270.54228
G1 X33.362 Y165.613 E270.59487
G1 X31.559 Y164.739 E270.70683
G1 X30.636 Y164.043 E270.77142
G1 X29.635 Y163.029 E270.85104
G1 X28.705 Y161.737 E270.93999
G1 X28.09 Y160.298 E271.02743
G1 X27.735 Y158.861 E271.11014
G1 X27.613 Y157.511 E271.18588
G1 X27.643 Y76.958 E275.68694
G1 X27.809 Y75.71 E275.75729
G1 X28.105 Y74.635 E275.81959
G1 X29.004 Y72.807 E275.93342
G1 X29.627 Y71.972 E275.99163
G1 X30.66 Y70.911 E276.07438
G1 X32.241 Y69.871 E276.18012
G0 F6000 X32.41 Y70.234
G1 F1200 X33.466 Y69.743 E276.24519
G1 X35.15 Y69.362 E276.34167
G1 X35.864 Y69.3 E276.38171
G1 X198.786 Y69.29 E285.48531
G1 X200.631 Y69.509 E285.58913
G1 X201.594 Y69.797 E285.64529
G1 X203.147 Y70.543 E285.74156
G1 X204.229 Y71.371 E285.81769
G1 X205.084 Y72.256 E285.88645
G1 X205.956 Y73.487 E285.97074
G1 X206.47 Y74.654 E286.042
G1 X206.877 Y76.243 E286.13365
G1 X206.987 Y77.489 E286.20355
G1 X206.96 Y157.989 E290.70165
G1 X206.794 Y159.237 E290.772
G1 X206.521 Y160.219 E290.82895
G1 X205.653 Y161.983 E290.9388
G1 X205.086 Y162.749 E290.99205
G1 X204.083 Y163.78 E291.07243
G1 X202.587 Y164.766 E291.17254
G1 X201.528 Y165.256 E291.23774
G1 X199.811 Y165.638 E291.33603
G1 X198.786 Y165.71 E291.39344
G1 X35.835 Y165.688 E300.49866
G1 X34.375 Y165.493 E300.58097
G1 X33.536 Y165.253 E300.62973
G1 X31.769 Y164.397 E300.73944
G1 X30.921 Y163.762 E300.79863
G1 X29.92 Y162.748 E300.87825
G1 X29.056 Y161.54 E300.96124
G1 X28.458 Y160.141 E301.04625
G1 X28.133 Y158.825 E301.122
G1 X28.013 Y157.511 E301.19572
G1 X28.04 Y77.011 E305.69382
G1 X28.206 Y75.763 E305.76417
G1 X28.479 Y74.781 E305.82113
G1 X29.347 Y73.017 E305.93098
G1 X29.914 Y72.251 E305.98423
G1 X30.917 Y71.22 E306.0646
G1 X32.41 Y70.234 E306.16458
G0 F6000 X32.579 Y70.597
G1 F1200 X33.598 Y70.123 E306.22738
G1 X35.185 Y69.761 E306.31833
G1 X35.899 Y69.699 E306.35838
G1 X198.786 Y69.69 E315.46002
G1 X200.518 Y69.893 E315.55746
G1 X201.421 Y70.158 E315.61005
G1 X202.94 Y70.887 E315.70419
G1 X203.942 Y71.65 E315.77456
G1 X204.757 Y72.487 E315.83984
G1 X205.607 Y73.688 E315.92206
G1 X206.104 Y74.815 E315.99088
G1 X206.479 Y76.279 E316.07533
G1 X206.587 Y77.489 E316.14321
G1 X206.563 Y157.936 E320.63835
G1 X206.397 Y159.184 E320.7087
G1 X206.146 Y160.076 E320.76047
G1 X205.33 Y161.746 E320.86433
G1 X204.799 Y162.47 E320.9145
G1 X203.824 Y163.472 E320.99262
G1 X202.419 Y164.403 E321.0868
G1 X201.398 Y164.875 E321.14965
G1 X199.783 Y165.239 E321.24216
G1 X198.786 Y165.31 E321.29801
G1 X35.835 Y165.288 E330.40323
G1 X34.485 Y165.108 E330.47933
G1 X33.646 Y164.868 E330.52809
G1 X31.977 Y164.053 E330.63187
G1 X31.206 Y163.481 E330.68551
G1 X30.205 Y162.467 E330.76513
G1 X29.407 Y161.343 E330.84216
G1 X28.826 Y159.984 E330.92474
G1 X28.531 Y158.788 E330.99357
G1 X28.413 Y157.511 E331.06523
G1 X28.437 Y77.064 E335.56037
G1 X28.603 Y75.816 E335.63072
G1 X28.854 Y74.924 E335.6825
G1 X29.67 Y73.254 E335.78636
G1 X30.201 Y72.53 E335.83653
G1 X31.176 Y71.528 E335.91465
G1 X32.579 Y70.597 E336.00873
G0 F6000 X32.748 Y70.96
G1 F1200 X33.729 Y70.504 E336.06918
G1 X35.22 Y70.16 E336.15468
G1 X35.934 Y70.098 E336.19473
G1 X198.786 Y70.09 E345.29441
G1 X200.405 Y70.277 E345.38548
G1 X201.308 Y70.542 E345.43806
G1 X202.73 Y71.23 E345.52633
G1 X203.655 Y71.929 E345.59112
G1 X204.47 Y72.766 E345.6564
G1 X205.257 Y73.886 E345.73288
G1 X205.738 Y74.976 E345.79946
G1 X206.081 Y76.315 E345.87669
G1 X206.187 Y77.489 E345.94256
G1 X206.166 Y157.883 E350.43473
G1 X206 Y159.131 E350.50508
G1 X205.761 Y159.966 E350.55361
G1 X205.007 Y161.509 E350.64958
G1 X204.476 Y162.233 E350.69975
G1 X203.567 Y163.162 E350.77237
G1 X202.251 Y164.04 E350.86077
G1 X201.269 Y164.494 E350.92122
G1 X199.754 Y164.84 E351.00805
G1 X198.786 Y164.91 E351.06228
G1 X35.887 Y164.891 E360.1646
G1 X34.595 Y164.723 E360.2374
G1 X33.756 Y164.483 E360.28616
G1 X32.214 Y163.73 E360.38204
G1 X31.49 Y163.199 E360.43221
G1 X30.531 Y162.235 E360.50819
G1 X29.758 Y161.146 E360.58282
G1 X29.194 Y159.827 E360.66297
G1 X28.929 Y158.751 E360.72489
G1 X28.813 Y157.511 E360.79448
G1 X28.834 Y77.117 E365.28666
G1 X29 Y75.869 E365.35701
G1 X29.239 Y75.034 E365.40554
G1 X29.993 Y73.491 E365.5015
G1 X30.524 Y72.767 E365.55167
G1 X31.433 Y71.838 E365.6243
G1 X32.748 Y70.96 E365.71265
G0 F6000 X32.917 Y71.323
G1 F1200 X33.86 Y70.885 E365.77075
G1 X35.255 Y70.559 E365.85079
